<?xml version="1.0" encoding="UTF-8"?>
<map version="1.10" tiledversion="1.12.2" orientation="orthogonal" renderorder="right-down" width="273" height="15" tilewidth="16" tileheight="16" infinite="0" nextlayerid="6" nextobjectid="118">
 <editorsettings>
  <export target="maps/dungeon.tmj" format="json"/>
 </editorsettings>
 <tileset firstgid="1" source="maps/DungeonTiles.tsx"/>
 <layer id="3" name="Background" width="273" height="15">
  <data encoding="csv">
0,0,0,0,0,0,0,0,0,0,0,0,0,0,0,0,0,0,0,0,0,0,0,0,0,0,0,0,0,0,0,0,0,0,0,0,0,0,0,0,0,0,0,0,0,0,0,0,0,0,0,0,0,0,0,0,0,0,0,0,0,0,0,0,0,0,0,0,0,0,0,0,0,0,0,0,0,0,0,0,0,0,0,0,0,0,0,0,0,0,0,0,0,0,0,0,0,0,0,0,0,0,0,0,0,0,0,0,0,0,0,0,0,0,0,0,0,0,0,0,0,0,0,0,0,0,0,0,0,0,0,0,0,0,0,0,0,0,0,0,0,0,0,0,0,0,0,53,53,53,53,53,53,210,211,0,0,0,0,0,0,0,0,0,0,0,0,0,0,0,0,0,0,0,0,0,0,0,0,0,0,0,0,0,0,0,0,0,0,0,0,0,0,0,0,0,0,0,0,0,31,0,0,0,0,31,0,0,0,0,0,0,0,0,0,0,0,0,0,0,0,0,0,0,0,0,0,0,0,0,53,0,0,0,0,0,0,0,0,0,0,0,0,0,0,0,0,0,0,0,0,0,0,0,0,0,0,0,0,0,0,0,0,0,0,0,0,0,0,0,0,0,0,
0,0,0,0,0,0,0,0,0,0,0,0,0,0,0,0,0,0,0,0,0,0,0,0,0,0,0,0,0,0,0,0,0,0,0,0,0,0,0,0,0,0,0,0,0,0,0,0,0,0,0,0,0,0,0,0,0,0,0,0,0,0,0,0,0,0,0,0,0,0,0,0,0,0,0,0,0,0,0,0,0,0,0,0,0,0,0,0,0,0,0,0,0,0,0,0,0,0,0,0,0,0,0,0,0,0,0,0,0,0,0,0,0,0,0,0,0,0,0,0,0,0,0,0,0,0,0,0,0,0,0,0,0,0,0,0,0,0,0,0,0,0,0,0,0,0,53,53,53,53,53,53,53,210,211,0,0,0,0,0,0,0,0,0,0,0,0,0,0,0,0,0,0,0,0,0,0,0,0,0,54,54,31,31,31,14,54,54,54,54,54,54,54,54,14,31,31,31,31,31,31,14,54,54,14,31,31,31,31,54,54,54,54,54,54,54,54,31,31,14,54,54,54,54,31,31,31,31,31,31,0,0,0,0,0,0,0,0,0,0,0,0,0,0,0,0,0,0,0,0,0,0,0,0,0,0,0,0,0,0,0,0,0,0,0,0,0,0,0,0,0,0,0,
0,0,0,0,0,0,0,0,0,0,0,0,0,0,0,0,0,0,0,0,0,0,0,0,0,0,0,0,0,0,0,0,0,0,0,0,0,0,0,0,0,0,0,0,0,0,0,0,0,0,0,0,0,0,0,0,0,0,0,0,0,0,0,0,0,0,0,0,0,0,0,0,0,0,0,0,0,0,0,0,0,0,0,0,0,0,0,0,0,0,370,370,370,353,353,370,353,353,353,353,353,353,353,370,370,370,370,370,370,370,353,353,353,370,370,370,353,353,353,353,353,353,353,353,353,353,353,353,353,386,386,0,0,244,245,245,245,245,246,0,0,244,245,246,0,0,244,245,245,245,245,245,245,176,177,0,0,0,0,0,0,0,0,0,0,0,0,0,0,0,0,0,0,0,0,0,0,0,0,0,54,54,54,31,14,54,54,54,54,54,54,54,54,54,54,54,54,54,54,54,54,54,54,54,54,31,31,31,14,14,54,54,54,54,54,54,31,31,14,54,54,54,54,54,54,54,14,31,31,31,54,0,0,0,0,0,0,0,0,0,0,0,0,0,0,0,0,31,31,0,0,0,0,0,0,0,0,0,0,0,0,0,0,0,0,0,0,0,0,0,0,0,0,
244,245,245,245,245,246,0,0,53,53,53,53,53,53,0,0,53,53,53,53,53,0,0,53,0,0,0,0,0,0,0,53,53,53,53,0,0,53,53,53,53,53,0,0,54,54,54,54,54,54,54,54,54,54,54,54,54,54,54,0,0,0,0,0,0,0,0,0,0,0,0,0,0,0,0,0,0,0,0,0,0,0,0,0,0,0,0,0,0,370,370,370,353,353,353,370,353,353,353,353,353,353,353,353,353,370,370,370,370,370,353,353,353,353,370,370,353,353,353,353,353,353,353,353,353,353,353,353,386,386,386,0,0,261,262,262,262,262,263,176,0,261,262,263,0,0,261,262,262,262,262,262,262,176,177,0,0,0,0,0,0,0,0,0,0,0,0,0,0,0,0,0,0,0,0,0,0,0,0,0,54,54,54,54,54,54,54,54,54,54,54,54,54,54,54,54,54,54,54,54,54,54,54,54,54,54,14,14,31,31,14,54,54,54,54,54,54,54,54,54,54,54,54,54,54,54,54,54,31,31,54,54,54,54,54,54,54,54,54,54,54,54,54,54,54,31,31,31,31,14,54,54,54,54,54,54,54,54,54,54,54,54,54,31,31,31,31,14,54,54,54,54,54,
261,262,262,262,262,263,210,0,53,53,53,53,53,53,0,0,53,53,53,53,53,0,0,53,53,0,0,0,0,0,0,53,53,53,53,0,0,53,53,53,53,53,0,0,54,54,54,54,54,54,54,54,54,54,54,54,54,54,54,54,54,0,0,0,0,0,0,0,0,0,0,0,0,0,0,0,0,0,0,0,0,0,0,0,0,0,0,0,370,370,370,353,353,353,353,370,353,353,353,353,353,353,353,353,353,353,370,353,353,353,353,353,353,353,370,387,387,353,353,353,353,353,353,353,353,353,353,353,386,386,386,386,0,261,262,262,262,262,263,176,0,261,262,263,0,0,261,262,262,262,262,262,262,176,177,0,0,0,0,0,0,0,0,0,0,0,0,0,0,0,0,0,0,0,0,0,0,0,0,0,54,54,54,54,54,54,54,54,54,54,54,54,54,54,54,54,54,54,54,54,54,54,54,54,54,54,54,54,54,31,31,14,54,54,54,54,54,54,54,54,54,54,54,54,54,54,54,31,31,54,54,54,54,54,54,54,54,54,54,54,54,54,54,54,54,54,31,31,14,54,54,54,54,54,54,54,54,54,54,54,54,54,54,54,31,31,31,54,54,54,54,54,54,
261,262,262,262,262,263,210,0,487,488,488,488,488,488,488,0,53,53,53,53,53,0,0,53,53,53,53,53,0,0,53,53,53,53,53,0,0,53,53,53,53,53,0,0,54,54,54,54,54,54,54,54,54,54,54,54,54,54,54,54,54,54,0,0,0,0,0,0,0,0,0,0,0,0,0,0,0,0,0,0,0,0,0,0,0,0,0,353,370,353,370,370,353,353,353,370,353,370,370,370,370,353,353,353,353,353,370,353,353,353,370,353,353,353,353,387,387,387,353,353,353,353,387,387,387,353,353,353,353,386,386,386,0,261,262,262,262,262,263,0,0,261,262,263,0,0,261,262,262,262,262,262,262,176,177,0,0,0,0,0,0,0,0,0,0,0,0,0,0,0,0,0,0,0,0,0,0,0,0,0,54,54,54,54,54,54,0,0,0,0,0,0,0,0,0,0,0,0,0,0,0,54,54,54,54,54,54,54,54,54,54,31,54,54,54,54,54,54,54,54,54,54,54,54,54,54,54,31,54,54,54,54,54,54,54,54,54,54,54,54,54,54,54,54,54,54,31,31,54,54,54,54,54,54,54,54,54,54,54,54,54,54,54,54,54,31,31,54,54,54,54,54,54,
261,262,262,262,262,263,0,0,0,0,53,53,53,0,0,0,0,0,0,0,0,0,0,53,53,53,53,53,0,0,0,0,0,0,0,0,0,0,0,0,0,0,0,0,54,54,54,54,54,54,54,54,54,54,54,54,54,54,54,54,54,54,54,54,556,573,590,589,590,590,590,590,590,590,590,590,590,590,591,353,353,370,353,353,353,353,353,353,353,353,353,353,353,353,353,370,353,370,370,370,370,353,353,353,353,353,353,353,353,353,370,387,353,353,353,387,387,387,387,353,353,353,387,387,387,387,386,386,386,386,386,0,0,261,262,262,262,262,263,0,0,261,262,263,0,0,261,262,262,262,262,262,262,176,177,244,245,245,245,245,245,245,245,245,245,245,245,245,245,245,245,246,0,0,0,14,54,0,0,54,54,54,54,54,54,54,0,0,0,0,0,0,0,0,0,0,0,0,0,0,0,54,54,54,54,54,54,54,54,54,54,54,54,54,54,54,54,54,54,54,54,54,54,54,54,54,54,54,54,54,54,54,54,54,54,54,54,54,54,54,54,54,54,54,54,54,54,54,54,54,54,54,54,54,54,54,54,54,54,54,54,54,54,54,54,54,14,54,54,54,54,54,54,
261,262,262,262,262,263,0,0,0,53,53,53,0,0,0,0,13,53,53,53,14,0,0,0,0,0,0,0,0,0,14,14,53,14,53,0,0,14,14,53,53,14,0,0,14,54,54,54,54,54,54,54,54,54,54,54,54,54,54,54,54,54,54,556,573,590,590,589,590,590,590,590,590,590,590,590,590,590,591,353,353,370,353,353,353,353,353,353,353,353,353,353,353,353,353,370,370,370,370,353,353,353,353,353,353,353,353,353,370,387,387,387,387,353,353,353,387,387,387,387,353,353,387,387,387,387,387,387,386,386,386,0,0,261,262,262,262,262,263,0,0,261,262,263,0,0,261,262,262,262,262,262,262,176,177,262,262,262,262,262,262,262,262,262,262,262,262,262,262,262,262,262,0,0,0,54,54,14,0,0,54,54,54,54,54,54,0,0,0,0,0,0,0,0,0,0,0,0,0,0,0,31,54,54,54,54,54,54,54,54,54,54,54,54,54,54,54,54,54,54,54,54,54,54,54,54,54,54,54,54,54,54,54,54,54,54,54,54,54,54,54,54,54,54,54,54,54,54,54,54,54,54,54,54,54,54,54,54,54,54,54,54,54,54,54,54,54,54,54,54,54,54,54,
261,262,262,262,262,263,0,0,0,53,53,53,53,0,0,0,14,53,53,14,14,0,0,14,53,53,53,53,0,0,14,53,53,14,14,0,0,14,31,53,53,53,0,0,31,14,54,54,54,54,555,556,556,556,557,54,54,54,555,556,556,556,556,573,590,590,590,606,607,607,607,607,607,607,607,607,607,607,608,353,353,370,353,353,353,353,353,353,353,353,353,353,353,353,353,370,370,370,353,353,353,353,353,353,353,353,353,370,370,387,0,0,0,0,0,0,387,387,387,387,387,387,387,387,387,387,387,387,386,386,386,0,0,261,262,262,262,262,263,0,0,261,262,263,0,0,261,262,262,262,262,262,262,176,177,262,262,262,262,262,262,262,262,262,262,262,262,262,262,262,262,262,0,14,54,54,54,14,0,0,54,54,54,54,54,54,54,54,54,54,54,54,54,54,31,31,0,0,0,0,0,31,54,54,54,54,54,54,54,54,54,54,54,54,54,54,54,54,54,54,54,54,54,54,54,54,54,54,54,54,54,54,54,54,54,54,54,54,54,54,54,54,54,54,54,54,54,54,54,54,54,54,54,54,54,54,54,54,54,54,54,54,54,54,54,54,54,54,54,54,54,54,54,
261,262,262,262,262,263,0,0,53,53,53,53,53,53,0,0,53,53,53,53,53,0,0,14,14,53,53,53,0,0,53,31,53,53,14,0,0,14,53,53,53,53,0,0,14,31,54,54,54,54,572,572,572,572,572,54,54,54,572,572,572,572,572,572,572,572,572,0,0,0,0,0,0,0,0,0,0,0,0,353,353,370,353,370,353,353,353,353,353,370,370,370,353,353,353,370,353,353,353,353,353,353,353,353,353,353,370,370,370,0,0,0,0,0,0,0,353,353,353,386,387,387,387,387,386,386,387,387,386,386,386,0,0,261,262,262,262,262,263,0,0,261,262,263,0,0,261,262,262,262,262,262,262,176,177,278,279,279,279,279,279,279,279,279,279,279,279,279,279,279,279,280,0,54,54,54,54,54,54,54,54,54,54,54,54,54,54,31,31,54,54,54,54,31,31,31,31,0,0,0,0,31,31,54,54,54,54,54,54,54,54,54,54,54,54,54,54,54,54,54,54,54,54,54,54,54,54,54,54,54,54,54,54,54,54,54,54,54,54,54,54,54,54,54,54,54,54,54,54,54,54,54,54,54,54,54,54,54,54,54,54,54,54,54,54,54,54,54,54,54,54,54,31,
261,262,262,262,262,263,0,0,53,53,53,53,53,53,0,0,53,53,53,53,53,0,0,31,14,53,53,53,193,194,53,53,53,53,53,0,0,53,53,53,53,53,0,0,53,53,53,53,53,54,590,590,590,590,590,54,54,54,590,590,590,590,590,590,590,590,0,0,0,0,0,0,0,0,0,0,0,0,0,370,353,370,353,370,353,353,353,353,353,370,370,370,370,387,370,370,387,387,387,387,353,353,353,353,353,370,370,370,0,0,0,0,0,0,0,0,353,353,353,0,0,0,386,386,386,386,387,387,386,386,386,0,0,261,262,262,262,262,263,0,0,261,262,263,0,0,261,262,262,262,262,262,262,176,177,0,0,0,0,0,0,0,0,0,0,0,0,0,0,0,0,0,54,54,54,54,54,54,54,54,54,54,54,54,54,54,54,31,31,54,54,54,54,54,14,31,31,0,0,0,0,31,14,54,54,54,54,54,54,54,54,54,54,54,54,54,54,54,54,54,54,54,54,54,54,54,54,54,54,54,54,54,54,54,54,54,54,54,54,54,54,54,54,54,54,54,54,54,54,54,54,54,54,54,54,54,54,54,54,54,54,54,54,54,54,54,54,54,54,54,54,54,31,
278,279,279,279,279,280,0,0,53,53,53,53,53,53,193,194,53,53,53,53,53,0,0,53,53,53,14,0,0,0,0,53,53,53,53,0,0,53,53,53,53,53,0,0,53,53,53,53,53,54,606,607,607,607,607,54,54,54,607,607,607,607,607,608,609,0,0,0,0,0,0,0,0,0,0,0,0,0,0,144,370,370,370,370,353,353,353,353,353,370,370,387,387,387,370,370,370,387,387,387,387,387,387,353,370,370,370,0,0,0,0,0,0,0,0,0,353,353,353,0,0,0,386,386,386,386,386,386,386,386,386,0,0,261,262,262,262,262,263,0,0,261,262,263,0,0,278,279,279,279,279,279,279,193,194,0,0,0,0,0,0,0,0,0,0,0,0,0,0,0,0,0,0,54,54,54,54,54,54,54,54,54,54,54,54,14,31,31,31,54,54,54,54,54,54,54,54,0,0,0,0,14,54,54,54,54,54,54,54,54,54,54,54,54,54,54,54,54,54,54,54,54,54,54,54,54,54,54,54,54,54,54,54,54,54,54,54,54,54,54,54,54,54,54,54,54,54,54,54,54,54,54,54,54,54,54,54,54,54,54,54,54,54,54,54,54,54,54,54,54,54,54,31,
0,0,0,0,0,0,0,0,0,0,0,53,53,0,0,0,0,53,53,53,53,193,194,53,53,53,53,0,0,0,0,0,53,53,0,0,0,0,0,53,53,0,0,0,0,53,53,53,53,54,0,0,0,0,0,0,0,0,0,0,0,0,0,0,0,0,0,0,0,0,0,0,0,0,0,0,0,0,0,370,370,370,370,370,387,387,387,387,387,0,0,0,0,0,0,0,0,0,0,0,0,0,0,0,0,0,0,0,0,0,0,0,0,0,0,0,353,353,353,0,0,0,386,386,386,0,0,0,386,386,386,0,0,278,279,279,279,279,280,0,0,278,279,280,0,0,0,0,0,0,0,0,0,0,0,0,0,0,0,0,0,0,0,0,0,0,0,0,0,0,0,0,0,0,54,54,54,54,54,54,54,54,54,54,54,31,31,14,54,54,54,54,54,54,54,54,54,0,0,0,0,54,54,54,0,0,0,0,0,0,0,0,0,0,0,0,0,0,0,0,0,0,0,0,0,0,0,0,0,54,54,54,54,54,54,54,54,54,54,54,54,54,54,54,54,0,0,0,0,0,0,0,0,0,0,0,0,0,0,0,0,0,0,0,0,0,0,54,54,54,54,54,31,
0,0,0,0,0,0,0,0,0,0,0,53,53,0,0,0,0,0,53,53,0,0,0,0,53,53,0,0,0,0,0,0,53,53,0,0,0,0,0,53,53,0,0,0,0,0,53,53,53,79,0,0,0,0,0,0,0,0,0,0,0,0,0,0,0,0,0,0,0,0,0,0,0,0,0,0,0,0,0,370,370,370,0,0,0,0,0,0,0,0,0,0,0,0,0,0,0,0,0,0,0,0,0,0,0,0,0,0,0,0,0,0,0,0,0,0,353,353,353,0,0,0,386,386,386,0,0,0,386,386,386,0,0,0,0,0,0,0,0,0,0,0,0,0,0,0,0,0,0,0,0,0,0,0,0,0,0,0,0,0,0,0,0,0,0,0,0,0,0,0,0,0,0,0,0,54,54,54,31,31,14,54,54,54,54,54,54,54,54,54,54,54,54,54,54,54,54,0,0,0,0,54,54,54,0,0,0,0,0,0,0,0,0,0,0,0,0,0,0,0,0,0,0,0,0,0,0,0,0,0,54,54,54,54,54,54,54,54,54,54,54,54,54,54,54,0,0,0,0,0,0,0,0,0,0,0,0,0,0,0,0,0,0,0,0,0,0,31,31,14,54,54,54,
0,0,0,0,0,0,0,0,0,0,53,53,53,0,0,0,0,0,53,0,0,0,0,0,53,53,53,0,0,0,0,53,53,0,0,0,0,0,0,53,53,0,0,0,0,0,53,53,53,79,0,0,0,0,0,0,0,0,0,0,0,0,0,0,0,0,0,0,0,0,0,0,0,0,0,0,0,0,0,370,370,370,0,0,0,0,0,0,0,0,0,0,0,0,0,0,0,0,0,0,0,0,0,0,0,0,0,0,0,0,0,0,0,0,0,0,353,353,353,0,0,0,386,386,386,0,0,0,386,386,386,0,0,0,0,0,0,0,0,0,0,0,0,0,0,0,0,0,0,0,0,0,0,0,0,0,0,0,0,0,0,0,0,0,0,0,0,0,0,0,0,0,0,0,0,0,0,0,31,31,31,14,54,54,54,54,54,54,54,54,54,54,54,54,54,54,54,0,0,0,0,54,54,54,0,0,0,0,0,0,0,0,0,0,0,0,0,0,0,0,0,0,0,0,0,0,0,0,0,0,0,0,0,0,0,0,0,0,0,0,0,0,0,0,0,0,0,0,0,0,0,0,0,0,0,0,0,0,0,0,0,0,0,0,0,0,0,31,31,31,31,31,14
</data>
 </layer>
 <layer id="1" name="Ground" width="273" height="15">
  <data encoding="csv">
53,53,53,53,53,53,53,53,53,53,53,53,53,53,53,53,53,53,53,53,53,53,53,53,53,53,53,53,53,53,53,53,53,53,53,53,53,53,53,53,53,53,53,53,53,53,53,53,53,53,53,53,53,53,53,53,53,53,53,53,53,53,53,53,53,53,53,53,53,53,53,53,53,53,53,53,53,53,53,53,53,53,53,53,53,53,53,53,53,53,53,53,53,53,53,53,53,53,53,53,53,53,53,53,53,53,53,53,53,53,53,53,53,53,53,53,53,53,53,53,53,53,53,53,53,53,53,53,53,53,53,53,53,53,53,53,53,53,53,53,53,53,53,53,53,53,89,106,0,0,0,0,0,0,0,69,55,55,55,55,55,55,55,55,55,55,55,55,55,55,55,55,55,55,55,55,55,55,55,55,89,87,87,87,87,87,87,87,87,87,87,87,87,87,87,87,87,87,87,87,87,87,87,87,87,87,87,87,87,87,87,87,87,87,87,87,87,87,87,87,87,87,87,87,87,87,87,87,87,88,0,53,53,53,53,53,53,53,53,53,53,53,53,53,53,53,53,53,53,53,53,53,53,53,53,53,53,53,53,53,53,53,53,53,53,53,53,53,53,53,53,53,53,
53,53,53,53,53,53,53,53,53,53,53,53,53,53,53,53,53,53,53,53,53,53,53,53,53,53,53,53,53,53,53,53,53,53,53,53,53,53,53,53,53,53,53,53,53,53,53,53,53,53,53,53,53,53,53,53,53,53,53,53,53,53,53,53,53,53,53,53,53,53,53,53,53,53,53,53,53,53,53,53,53,53,53,53,53,53,53,53,53,53,89,87,87,87,87,87,87,87,87,87,87,87,87,87,87,87,87,87,87,87,87,87,87,87,87,87,87,87,87,87,87,87,87,87,87,87,87,87,87,87,87,87,87,87,87,87,87,87,87,87,87,87,87,87,87,87,106,0,0,0,0,0,0,0,0,69,55,55,55,55,55,55,55,55,55,55,55,55,55,55,55,55,55,55,55,55,55,377,55,89,106,0,0,0,0,0,0,0,0,0,0,0,0,0,0,0,0,0,0,0,0,0,0,0,0,0,0,0,0,0,0,0,0,0,0,0,0,0,0,0,0,0,0,0,0,0,0,0,0,105,88,53,53,53,53,53,53,53,53,53,53,53,53,53,53,53,53,53,53,53,53,53,53,53,53,53,53,53,53,53,53,53,53,53,53,53,53,53,53,53,53,53,53,
87,87,87,87,87,87,87,87,87,87,87,87,87,87,87,87,87,87,87,87,87,87,87,88,53,53,53,53,53,53,53,53,89,87,87,87,87,87,87,87,87,87,87,87,87,87,87,87,87,87,87,87,87,87,87,87,87,87,88,53,53,53,53,53,53,53,53,53,53,53,53,53,53,53,53,53,53,53,53,53,53,53,53,53,53,53,53,53,53,89,106,108,109,0,0,0,0,108,109,0,0,0,0,108,109,0,0,0,0,108,109,0,0,0,0,0,0,0,0,0,0,0,0,0,0,0,0,0,0,0,0,210,211,0,0,0,0,0,0,210,211,0,0,0,210,211,0,0,0,0,0,0,0,0,0,69,55,55,55,55,55,55,55,55,55,55,55,55,55,55,55,55,55,55,55,55,55,377,377,56,0,0,0,0,0,0,0,0,0,0,0,0,0,0,0,0,0,0,0,0,0,0,0,0,0,0,0,0,0,0,0,0,0,0,0,0,0,0,0,0,0,0,0,0,0,0,0,0,0,0,105,87,87,87,87,87,87,87,87,87,87,87,87,87,87,87,87,87,87,87,87,87,87,87,87,87,87,87,87,87,87,87,87,87,87,87,87,87,87,87,87,87,87,
0,62,63,0,0,0,210,211,0,0,0,598,0,0,210,211,0,0,598,0,0,210,211,105,88,53,53,53,53,53,53,89,106,0,0,210,211,0,0,598,0,0,210,211,0,0,0,0,598,0,0,0,0,0,0,0,0,0,105,88,53,53,53,53,53,53,53,53,53,53,53,53,53,53,53,53,53,53,53,53,53,53,53,53,53,53,53,53,89,106,0,125,126,0,0,0,0,125,126,0,0,0,0,125,126,0,0,0,0,125,126,0,0,0,0,0,0,0,0,0,0,0,0,0,0,0,0,0,0,0,0,176,177,0,0,0,0,0,0,176,177,0,0,0,176,177,0,0,0,0,0,0,0,0,0,69,55,55,55,55,55,55,55,55,55,55,55,55,55,55,55,55,55,55,55,55,55,377,377,56,0,0,0,0,0,0,0,0,0,0,0,0,0,0,0,0,0,0,0,0,0,0,0,0,0,0,0,0,0,0,0,0,0,0,0,0,0,0,0,0,0,0,0,0,0,0,0,0,0,0,0,0,0,0,0,0,0,0,0,0,0,0,0,0,0,0,0,0,0,0,0,0,0,0,0,0,0,0,0,0,0,0,0,0,0,0,0,0,0,0,0,0,0,
0,79,80,0,0,0,210,211,0,0,0,0,0,0,210,211,0,0,0,0,0,210,211,0,105,87,87,87,87,87,87,106,0,0,0,210,211,0,0,0,0,0,210,211,0,0,0,0,0,0,0,0,0,0,0,0,0,0,0,105,88,53,53,53,53,53,53,53,53,53,53,53,53,53,53,53,53,53,53,53,53,53,53,53,53,53,53,89,106,0,0,125,126,0,0,0,0,125,126,0,0,0,0,125,126,0,0,0,0,125,126,0,0,0,0,0,0,0,0,0,0,0,0,0,0,0,0,0,0,0,0,176,177,0,0,0,0,0,0,176,177,0,0,0,176,177,0,0,0,0,0,0,0,0,0,69,55,55,55,55,55,55,55,55,55,55,55,55,55,55,55,55,55,55,55,55,55,377,377,56,0,0,0,0,0,0,0,0,0,0,0,0,0,0,0,0,0,0,0,0,0,0,0,0,0,0,0,0,0,0,0,0,0,0,0,0,0,0,0,0,0,0,0,0,0,0,0,0,0,0,0,0,0,0,0,0,0,0,0,0,0,0,0,0,0,0,0,0,0,0,0,0,0,0,0,0,0,0,0,0,0,0,0,0,0,0,0,0,0,0,0,0,0,
0,79,80,0,0,0,210,211,0,0,0,0,0,0,210,211,0,0,0,0,0,210,211,0,0,598,0,0,210,211,0,0,0,0,0,176,177,0,0,0,0,0,176,177,0,0,0,0,0,0,0,0,0,0,0,0,0,0,0,0,105,87,87,87,87,87,87,87,87,87,87,87,87,87,87,87,87,87,87,87,87,87,87,87,87,87,87,106,0,0,0,125,126,0,0,0,0,125,126,0,0,0,0,125,126,0,0,0,0,125,126,0,477,478,0,0,0,0,0,0,0,0,0,0,0,0,0,0,0,0,0,176,177,0,0,0,0,0,0,176,177,0,0,0,176,177,0,0,0,0,0,0,0,0,0,86,87,87,87,87,87,87,87,87,87,87,87,87,87,87,393,393,393,393,393,393,394,377,377,379,0,0,0,0,0,0,35,36,36,36,36,36,36,36,36,36,36,36,36,36,39,0,0,0,0,0,0,0,0,0,0,0,0,0,0,0,0,0,0,0,0,0,0,0,0,0,0,0,0,0,0,0,0,0,0,0,0,0,0,0,0,0,0,0,0,0,0,0,0,0,0,0,0,0,0,0,0,0,0,0,0,0,0,0,0,0,0,0,0,0,0,0,0,
0,79,80,0,0,0,176,177,31,31,0,0,0,14,176,177,488,488,488,488,488,176,177,0,0,0,0,0,176,177,488,488,488,488,488,176,177,488,488,488,488,488,176,177,0,0,0,0,0,0,0,0,0,0,0,0,0,0,0,0,0,0,0,0,0,0,0,0,701,702,0,530,531,0,0,0,0,0,0,63,0,0,0,0,598,108,109,0,0,0,0,125,126,0,0,0,0,125,126,0,0,0,0,125,126,0,0,0,0,125,126,582,494,495,445,446,0,0,0,0,0,0,0,0,0,0,0,0,0,0,0,176,177,0,0,0,0,0,0,176,177,0,0,0,176,177,0,0,0,0,0,0,0,0,0,0,0,0,0,0,0,0,0,0,0,0,0,0,0,0,0,0,0,0,0,0,411,393,393,412,0,0,0,0,0,0,52,55,55,55,55,55,55,55,55,55,55,55,55,55,56,0,0,0,0,0,0,0,0,0,0,0,0,0,0,0,0,0,0,0,0,0,0,0,0,0,0,0,0,0,0,0,0,0,0,0,0,0,0,0,0,0,0,0,0,0,0,0,0,0,0,0,0,0,0,0,0,0,0,0,0,0,0,0,0,0,0,0,0,0,0,0,0,
0,79,80,0,0,0,176,177,31,0,0,0,31,31,176,177,0,0,0,0,0,176,177,488,488,488,488,488,176,177,0,0,0,0,0,176,177,0,0,0,0,0,176,177,0,0,0,0,0,0,0,0,0,0,0,0,0,0,0,0,0,0,0,0,0,0,0,0,718,719,0,547,548,634,635,632,633,0,0,80,0,0,0,0,0,125,126,0,0,0,0,125,126,0,0,0,0,125,126,0,735,736,0,125,126,0,0,0,0,142,143,599,511,512,462,463,0,0,0,0,0,0,0,0,0,0,0,0,0,0,0,176,177,0,0,0,0,0,0,176,177,0,0,0,176,177,0,0,0,0,0,0,0,0,0,0,0,0,0,0,0,0,0,0,0,0,0,0,0,0,0,0,0,0,0,0,0,0,0,0,181,181,181,0,0,0,86,87,87,87,87,87,87,87,87,88,55,55,55,55,56,0,0,0,0,0,0,0,0,0,0,0,181,181,181,0,0,0,0,0,0,0,0,0,0,0,0,0,0,0,0,0,0,0,0,0,0,0,0,0,0,0,0,0,0,0,0,0,0,0,0,0,0,0,0,0,0,0,0,0,0,0,0,0,0,0,0,0,0,0,0,0,0,
0,79,80,0,0,0,176,177,14,0,0,0,0,31,176,177,0,0,0,0,0,176,177,0,0,0,0,0,176,177,0,0,0,0,0,176,177,0,0,0,0,0,176,177,0,0,0,0,0,0,0,0,0,0,0,0,0,0,0,0,0,0,0,0,0,0,0,0,0,0,0,564,565,651,652,649,650,0,0,80,0,0,0,0,0,125,126,720,0,0,0,125,126,0,0,0,0,125,126,0,752,753,0,125,126,0,0,0,20,36,36,36,36,36,36,39,0,0,0,0,0,0,0,0,0,0,0,0,0,0,0,176,177,0,0,0,0,0,0,176,177,0,0,0,176,177,0,0,0,0,0,0,0,0,0,0,0,0,0,0,0,0,0,0,0,0,0,0,0,0,0,0,0,0,0,0,0,0,0,0,0,0,0,0,0,0,0,0,0,0,0,0,0,0,0,105,88,55,55,55,56,0,0,0,0,0,0,0,0,0,0,0,0,0,0,0,0,0,0,0,0,0,0,0,0,0,0,0,0,0,0,0,0,0,0,0,0,0,0,0,0,0,0,0,0,0,0,0,0,0,0,0,0,0,0,0,0,0,0,0,0,0,0,0,0,0,0,0,0,0,0,0,0,
0,79,80,0,0,0,176,177,0,0,0,0,0,0,176,177,0,0,0,0,0,176,177,0,0,0,0,0,176,177,0,0,0,0,0,176,177,0,0,0,0,0,176,177,0,0,0,0,0,0,0,0,0,0,0,0,0,0,0,0,0,0,0,0,703,0,20,36,36,342,342,342,342,342,342,342,342,36,39,80,0,0,0,0,0,125,126,701,702,0,0,125,126,0,703,0,0,125,126,0,0,0,0,125,126,0,0,20,37,53,53,53,53,53,53,56,0,0,0,0,0,0,0,0,0,0,0,0,0,0,0,176,177,0,0,15,0,0,0,176,177,0,0,0,176,177,0,0,0,0,0,0,0,0,0,0,0,0,0,0,0,0,0,0,0,0,0,0,0,0,0,0,0,0,0,0,0,0,0,0,0,0,0,181,181,181,54,0,0,0,0,0,0,0,0,0,105,88,55,55,56,0,0,0,0,0,181,181,181,0,0,0,0,0,0,0,0,0,0,0,0,0,0,0,0,0,0,0,0,0,0,0,0,0,0,0,0,0,0,0,0,0,0,0,0,0,0,0,0,0,0,0,0,0,0,0,0,0,0,0,0,0,0,0,0,0,0,0,0,0,0,0,0,
0,79,80,0,0,0,176,177,0,0,0,0,0,0,176,177,0,0,0,0,0,176,177,0,0,0,0,0,0,0,0,0,0,0,0,176,177,0,0,0,0,0,176,177,0,0,0,0,0,0,0,0,0,0,0,0,0,0,0,0,0,0,0,0,0,20,37,53,70,359,359,359,359,359,359,359,359,55,56,80,0,0,0,0,0,125,126,718,719,0,0,125,126,0,0,0,0,125,126,0,0,0,0,125,126,0,20,37,53,53,53,53,53,53,53,56,0,0,0,35,36,39,0,0,0,0,0,0,0,0,0,176,177,0,0,32,33,0,0,176,177,0,0,0,176,177,0,0,0,0,0,0,0,0,20,36,36,36,36,36,36,36,36,36,36,36,36,36,36,36,342,342,327,0,0,0,0,0,0,0,0,0,0,0,0,54,54,54,0,0,0,0,0,0,0,0,0,69,55,55,56,0,0,0,0,0,0,0,0,0,0,0,0,0,0,0,0,0,0,0,0,0,0,0,0,0,0,0,0,0,0,0,0,0,0,0,0,0,0,0,0,0,0,0,0,0,0,0,0,0,0,0,0,0,0,0,0,0,0,0,0,0,0,0,0,0,0,0,0,0,0,0,0,
0,96,97,0,0,0,193,194,0,0,0,0,0,0,0,0,0,0,0,0,0,176,177,0,0,0,0,35,36,36,39,0,0,0,0,193,194,0,0,0,0,0,193,194,0,0,0,0,0,0,0,0,0,0,0,0,0,0,0,0,0,0,0,0,20,37,53,70,70,377,377,377,377,377,377,377,377,55,56,80,0,0,0,0,0,125,126,0,0,0,0,142,143,0,583,584,631,142,143,0,581,615,616,142,143,20,37,53,53,53,53,53,53,53,53,56,0,0,0,52,55,56,0,0,0,0,0,0,0,0,0,176,177,0,0,49,50,0,0,176,177,0,0,0,193,194,0,0,0,0,0,0,0,20,37,53,53,53,53,53,53,53,53,53,53,53,53,53,53,53,359,359,344,327,0,0,0,0,0,0,0,0,0,0,0,0,0,0,0,0,0,0,0,0,0,0,0,69,55,55,56,0,0,0,0,0,0,0,0,0,0,0,0,0,0,0,0,0,0,0,0,0,0,0,0,0,0,0,0,0,0,0,0,0,0,0,0,0,0,0,0,0,0,0,0,0,0,0,0,0,0,0,0,0,0,0,0,0,0,0,0,0,0,0,0,0,0,0,0,0,0,0,0,
35,36,36,36,36,36,36,36,36,39,31,0,0,35,36,36,39,0,0,0,0,0,0,0,0,0,0,52,53,53,56,31,0,0,35,36,36,39,31,0,0,35,36,36,39,0,0,0,0,0,35,36,36,36,36,36,36,36,36,36,36,36,36,36,37,53,70,70,70,377,377,377,377,377,377,377,377,55,56,80,0,0,0,0,0,670,143,0,20,36,36,36,36,36,36,36,36,36,36,36,36,36,36,36,36,37,53,53,53,53,53,53,53,53,53,56,0,0,0,52,55,56,0,0,0,35,36,39,0,0,0,193,194,0,0,66,67,0,0,193,194,0,0,0,35,36,36,36,36,36,36,36,36,37,53,53,53,53,53,53,53,53,53,53,53,53,53,53,53,53,376,376,361,344,327,0,0,0,0,0,181,181,181,0,0,0,0,0,0,0,0,0,0,0,0,0,0,69,55,55,56,0,0,0,35,36,36,36,36,36,36,36,36,36,36,36,36,36,36,36,36,36,36,36,36,36,36,36,36,21,0,0,0,0,0,0,0,0,0,0,0,0,0,0,20,36,36,36,36,36,36,36,36,36,36,36,36,36,36,36,36,36,36,36,36,36,39,0,0,0,0,0,0,
53,53,53,53,53,53,53,53,55,56,14,0,0,52,53,53,56,14,0,0,35,36,36,39,0,0,31,52,53,53,56,14,0,0,52,53,53,56,31,0,0,52,53,53,56,31,0,0,0,31,52,53,55,55,55,55,55,55,55,55,55,55,55,55,55,55,55,55,55,377,377,377,377,377,377,377,377,55,56,80,0,35,36,36,36,36,36,36,37,53,53,53,53,53,53,53,53,53,53,53,53,53,53,53,53,53,53,53,53,53,53,53,53,53,53,56,0,0,0,52,55,56,0,0,0,52,53,56,0,0,0,35,36,36,36,36,36,36,36,36,39,53,53,53,52,53,53,53,53,53,53,53,53,53,53,53,53,53,53,53,53,53,53,53,53,53,53,53,53,53,376,376,376,361,344,342,342,345,0,0,0,0,0,0,0,0,0,0,0,0,0,0,0,0,0,0,0,69,55,55,56,0,0,0,52,53,53,53,53,53,53,53,53,53,53,53,53,53,53,53,53,53,53,53,53,53,53,53,53,38,21,0,0,0,0,0,0,0,0,0,0,0,0,20,37,53,53,53,53,53,53,53,53,53,53,53,53,53,53,53,53,53,53,53,53,53,56,0,0,0,0,0,0,
53,53,53,53,53,53,53,53,55,56,0,0,0,52,53,53,56,31,0,31,52,53,53,56,0,0,0,52,53,53,56,0,0,31,52,53,53,56,14,0,0,52,53,53,56,14,0,0,0,31,52,53,55,55,55,55,55,55,55,55,55,55,55,55,55,55,55,55,55,377,377,377,377,377,377,377,377,55,56,80,0,52,53,53,53,53,53,53,53,53,53,53,53,53,53,53,53,53,53,53,53,53,53,53,53,53,53,53,53,53,53,53,53,53,53,56,0,0,0,52,55,56,0,0,0,52,53,56,0,0,0,52,53,53,53,53,53,53,53,53,56,53,53,53,52,53,53,53,53,53,53,53,53,53,53,53,53,53,53,53,53,53,53,53,53,53,53,53,53,53,376,376,376,376,361,359,359,361,0,0,0,0,0,0,0,0,0,0,0,0,0,0,0,0,0,0,0,69,55,55,56,0,0,0,52,53,53,53,53,53,53,53,53,53,53,53,53,53,53,53,53,53,53,53,53,53,53,53,53,53,38,36,36,36,36,36,36,36,36,36,36,36,36,37,53,53,53,53,53,53,53,53,53,53,53,53,53,53,53,53,53,53,53,53,53,53,56,0,0,0,0,0,0
</data>
 </layer>
 <layer id="4" name="Prop" width="273" height="15">
  <data encoding="csv">
0,0,0,0,0,0,0,0,0,0,0,0,0,0,0,0,0,0,0,0,0,0,0,0,0,0,0,0,0,0,0,0,0,0,0,0,0,0,0,0,0,0,0,0,0,0,0,0,0,0,0,0,0,0,0,0,0,0,0,0,0,0,0,0,0,0,0,0,0,0,0,0,0,0,0,0,0,0,0,0,0,0,0,0,0,0,0,0,0,0,0,0,0,0,0,0,0,0,0,0,0,0,0,0,0,0,0,0,0,0,0,0,0,0,0,0,0,0,0,0,0,0,0,0,0,0,0,0,0,0,0,0,0,0,0,0,0,0,0,0,0,0,0,0,0,0,0,0,0,0,0,0,0,0,0,0,0,0,0,0,0,0,0,0,0,0,0,0,0,0,0,0,0,0,0,0,0,0,0,0,0,0,0,0,0,0,0,0,0,0,0,0,0,0,0,0,0,0,0,0,0,0,0,0,0,0,0,0,0,0,0,0,0,0,0,0,0,0,0,0,0,0,0,0,0,0,0,0,0,0,0,0,0,0,0,0,0,0,0,0,0,0,0,0,0,0,0,0,0,0,0,0,0,0,0,0,0,0,0,0,0,0,0,0,0,0,0,0,0,0,0,0,0,
0,0,0,0,0,0,0,0,0,0,0,0,0,0,0,0,0,0,0,0,0,0,0,0,0,0,0,0,0,0,0,0,0,0,0,0,0,0,0,0,0,0,0,0,0,0,0,0,0,0,0,0,0,0,0,0,0,0,0,0,0,0,0,0,0,0,0,0,0,0,0,0,0,0,0,0,0,0,0,0,0,0,0,0,0,0,0,0,0,0,0,0,0,0,0,0,0,0,0,0,0,0,0,0,0,0,0,0,0,0,0,0,0,0,0,0,0,0,0,0,0,0,0,0,0,0,0,0,0,0,0,0,0,0,0,0,0,0,0,0,0,0,0,0,0,0,0,0,0,0,0,0,0,0,0,0,0,0,0,0,0,0,0,0,0,0,0,0,0,0,0,0,0,0,0,0,0,0,0,0,0,0,0,0,0,0,0,0,0,0,0,0,0,0,0,0,0,0,0,0,0,0,0,0,0,0,0,0,0,0,0,0,0,0,0,0,0,0,0,0,0,0,0,0,0,0,0,0,0,0,0,0,0,0,0,0,0,0,0,0,0,0,0,0,0,0,0,0,0,0,0,0,0,0,0,0,0,0,0,0,0,0,0,0,0,0,0,0,0,0,0,0,0,
0,0,0,0,0,0,0,0,0,0,0,0,0,0,0,0,0,0,0,0,0,0,0,0,0,0,0,0,0,0,0,0,0,0,0,0,0,0,0,0,0,0,0,0,0,0,0,0,0,0,0,0,0,0,0,0,0,0,0,0,0,0,0,0,0,0,0,0,0,0,0,0,0,0,0,0,0,0,0,0,0,0,0,0,0,0,0,0,0,0,0,0,0,0,0,0,0,0,0,0,0,0,0,0,0,0,0,0,0,0,0,0,0,0,0,0,0,0,0,0,0,0,0,0,0,0,0,0,0,0,0,0,0,0,0,0,0,0,0,0,0,0,0,0,0,0,0,0,0,0,0,0,0,0,0,0,0,0,0,0,0,0,0,0,0,0,0,0,0,0,0,0,0,0,0,0,0,0,0,0,0,0,0,0,0,0,0,0,0,0,0,0,0,0,0,0,0,0,0,0,0,0,0,0,0,0,0,0,0,0,0,0,0,0,0,0,0,0,0,0,0,0,0,0,0,0,0,0,0,0,0,0,0,0,0,0,0,0,0,0,0,0,0,0,0,0,0,0,0,0,0,0,0,0,0,0,0,0,0,0,0,0,0,0,0,0,0,0,0,0,0,0,0,
0,0,0,0,0,0,0,0,0,0,0,0,0,0,0,0,0,0,0,0,0,0,0,0,0,0,0,0,0,0,0,0,0,0,0,0,0,0,0,0,0,0,0,0,0,0,0,0,0,0,0,0,0,0,0,0,0,0,0,0,0,0,0,0,0,0,0,0,0,0,0,0,0,0,0,0,0,0,0,0,0,0,0,0,0,0,0,0,0,0,0,0,0,0,0,0,0,0,0,0,0,0,0,0,0,0,0,0,0,0,0,0,0,0,0,0,0,0,0,0,0,0,0,0,0,0,0,0,0,0,0,0,0,0,0,0,0,0,0,0,0,0,0,0,0,0,0,0,0,0,0,0,0,0,0,0,0,0,0,0,0,0,0,0,0,0,0,0,0,0,0,0,0,0,0,0,0,0,0,0,0,0,0,0,0,0,0,0,0,0,0,0,0,0,0,0,0,582,0,0,0,0,0,0,0,0,0,0,0,0,0,0,0,0,0,0,0,0,0,0,0,0,0,0,0,0,0,0,0,0,0,0,0,0,0,0,0,0,0,0,0,0,0,0,0,0,0,0,0,0,0,0,0,0,0,0,0,0,0,0,0,0,0,0,0,0,0,0,0,0,0,0,0,
0,0,0,0,0,0,0,0,0,0,0,0,0,0,0,0,0,0,0,0,0,0,0,0,0,0,0,0,0,0,0,0,0,0,0,0,0,0,0,0,0,0,0,0,0,0,0,0,0,0,0,0,0,0,0,0,0,0,0,0,0,0,0,0,0,0,0,0,0,0,0,0,0,0,0,0,0,0,0,0,0,0,0,0,0,0,0,0,0,0,0,0,0,0,0,0,0,0,0,0,0,0,0,0,0,0,0,0,0,0,0,0,0,0,0,0,0,0,0,0,0,0,0,0,0,0,0,0,0,0,0,0,0,0,0,0,0,0,0,0,0,0,0,0,0,0,0,0,0,0,0,0,0,0,0,0,0,0,0,0,0,0,0,0,0,0,0,0,0,0,0,0,0,0,0,0,0,0,0,0,0,0,0,0,0,0,0,18,0,18,0,0,0,0,0,583,584,599,0,0,0,0,0,0,0,0,0,0,0,0,0,0,0,0,0,0,0,0,0,0,0,0,0,0,0,0,0,0,0,0,0,0,0,0,0,0,0,0,0,0,0,0,0,0,0,0,0,0,0,0,0,0,0,0,0,0,0,0,0,0,0,0,0,0,0,0,0,0,0,0,0,0,0,
0,0,0,0,0,0,0,0,0,0,0,0,0,0,0,0,0,0,0,0,0,0,0,0,0,0,0,0,0,0,0,0,0,0,0,0,0,0,0,0,0,0,0,0,0,0,0,0,0,0,0,0,0,0,0,0,0,0,0,0,0,0,0,0,0,0,0,0,0,0,0,0,0,0,0,0,0,0,0,0,0,0,0,0,0,0,0,0,0,0,0,0,0,0,0,0,0,0,0,0,0,0,0,0,0,0,0,0,0,0,0,0,0,0,0,0,0,0,0,0,0,0,0,0,0,0,0,0,0,0,0,0,0,0,0,0,0,0,0,0,0,0,0,0,0,0,0,0,0,0,0,0,0,0,0,0,0,0,0,0,0,0,0,0,0,0,0,0,0,0,0,0,0,0,0,0,0,0,0,0,0,0,0,0,0,0,0,0,0,0,0,0,0,0,0,0,0,0,0,0,0,0,0,0,0,0,0,0,0,0,0,0,0,0,0,0,0,0,0,0,0,0,0,0,0,0,0,0,0,0,0,0,0,0,0,0,0,0,0,0,0,0,0,0,0,0,0,0,0,0,0,0,0,0,0,0,0,0,0,0,0,0,0,0,0,0,0,0,0,0,0,0,0,
0,0,0,735,736,0,0,0,0,0,0,0,0,0,0,0,0,0,0,0,0,0,0,0,0,0,0,0,0,0,0,0,0,0,0,0,0,0,0,0,0,0,0,0,0,0,0,0,0,0,0,0,0,0,0,0,0,0,0,0,0,0,0,0,0,0,0,0,0,0,0,0,0,0,0,0,0,0,0,0,0,0,108,109,0,0,0,0,0,0,0,0,0,0,0,0,0,0,0,0,0,0,0,0,0,0,0,0,0,0,0,0,0,0,0,0,0,0,0,0,0,0,0,0,0,0,0,0,0,0,0,0,0,0,0,0,0,0,0,0,0,0,0,0,0,0,0,0,0,0,0,0,0,0,0,0,0,0,0,0,0,0,0,0,0,0,0,0,0,0,0,0,31,31,31,0,0,0,0,0,0,18,18,0,0,0,0,0,0,0,0,0,0,0,0,0,0,0,0,0,0,0,0,0,0,0,0,0,0,0,0,0,0,0,0,0,0,0,0,0,0,0,0,0,0,0,0,0,0,0,0,0,0,0,0,0,0,0,0,0,0,0,0,0,0,0,0,0,0,0,0,0,0,0,0,0,0,0,0,0,0,0,0,0,0,0,0,0,0,0,0,0,0,
702,0,0,752,753,0,0,0,0,0,0,0,0,0,0,0,0,0,0,0,0,0,0,0,0,0,0,0,0,0,0,0,0,0,0,0,0,0,0,0,0,0,0,0,0,0,0,0,0,0,0,0,0,0,0,0,0,0,0,0,0,0,0,0,0,0,0,0,0,0,0,0,0,0,0,0,0,0,0,0,0,0,125,126,0,0,0,0,0,0,0,0,0,0,0,0,0,0,0,0,0,0,0,0,0,0,0,0,0,0,0,0,0,0,18,0,0,0,0,0,0,0,0,0,0,0,0,0,0,0,0,0,0,0,0,0,0,0,0,0,0,0,0,0,0,0,0,0,0,0,0,0,0,0,0,0,0,0,0,0,0,0,0,0,0,0,0,720,0,0,0,0,31,31,31,0,0,0,31,31,0,0,0,0,0,0,0,0,0,0,0,0,0,0,0,0,0,0,0,0,0,0,0,0,0,0,42,43,0,0,0,0,0,0,0,0,0,0,0,0,0,0,0,0,0,0,0,0,0,0,0,0,0,0,0,0,0,0,0,0,0,0,0,0,0,0,0,0,0,0,0,0,0,100,101,0,0,0,0,0,0,0,0,0,0,0,0,0,0,0,0,0,0,
719,0,0,0,0,0,0,0,0,0,0,0,0,0,0,0,0,0,0,0,0,0,0,0,0,0,0,0,0,0,0,0,0,0,0,0,0,0,0,0,0,0,0,0,0,0,0,0,0,0,0,0,0,0,0,558,559,560,0,0,0,0,0,0,0,0,0,1,18,0,0,0,0,0,0,0,0,0,18,0,0,0,125,126,0,0,0,0,0,0,0,0,0,0,0,0,0,0,0,0,0,0,0,0,0,0,0,0,0,0,0,0,0,0,0,0,0,0,0,0,0,0,0,0,0,0,0,0,0,0,0,0,0,0,0,0,0,0,0,0,0,0,0,0,0,0,0,0,0,0,0,0,0,0,0,0,0,0,703,0,0,685,686,636,637,0,0,0,0,0,0,0,31,0,0,0,0,0,31,31,0,0,0,0,0,0,0,0,0,0,0,0,0,0,0,0,0,0,0,0,0,0,0,0,0,0,59,60,0,0,0,0,0,0,0,0,0,0,0,0,27,0,0,0,0,0,0,0,0,0,0,0,0,0,0,0,0,0,0,0,0,0,0,0,0,0,0,0,0,0,0,0,116,117,118,119,0,0,0,0,0,0,0,0,0,0,0,0,0,0,0,0,0,
0,0,0,685,686,0,0,0,0,0,0,0,0,0,0,0,0,0,0,0,0,0,0,0,0,0,0,0,0,0,0,0,0,0,0,0,0,0,0,0,0,0,0,0,0,0,0,0,0,62,0,0,0,0,0,575,0,577,0,0,0,0,0,0,0,0,0,0,0,0,0,0,0,0,0,0,0,0,0,0,0,0,125,126,0,0,0,0,0,0,0,0,0,0,0,0,0,0,0,0,0,0,0,0,0,0,0,0,0,0,0,0,0,0,0,0,0,0,0,0,18,0,0,0,0,0,0,0,0,0,0,0,0,0,0,0,0,0,0,0,0,0,0,0,0,0,0,0,0,685,686,0,0,0,0,0,670,18,0,0,0,687,688,653,654,0,670,670,617,618,0,0,31,0,0,0,0,0,0,0,0,0,0,0,0,0,54,0,0,0,0,0,0,0,0,0,0,0,0,0,0,0,0,0,0,0,0,0,0,0,0,0,0,0,0,0,0,0,0,0,44,0,0,0,0,0,0,0,0,0,0,0,0,0,0,0,0,0,0,0,0,0,0,0,0,0,0,0,0,0,0,0,133,134,135,136,0,0,0,0,0,0,0,0,0,0,0,0,0,0,0,0,0,
597,0,0,0,0,0,0,0,0,0,0,0,0,0,0,0,0,0,0,0,0,0,0,0,0,0,0,18,600,601,0,0,0,0,0,0,0,0,0,0,0,0,0,0,0,0,0,0,0,79,0,0,0,443,444,592,0,594,0,0,0,704,705,0,0,0,0,0,0,0,0,0,0,0,0,0,0,0,0,0,0,0,125,126,0,0,0,0,0,0,0,0,0,0,0,0,0,0,0,0,0,0,0,0,0,0,0,0,0,0,0,0,0,0,0,0,0,0,0,0,0,0,0,0,0,0,0,0,0,0,0,0,0,0,0,0,0,0,0,0,0,0,0,0,0,0,0,685,686,0,0,0,0,0,0,0,0,0,0,0,0,0,0,0,0,0,0,0,0,0,0,0,0,0,0,0,0,0,0,0,0,0,0,0,0,0,0,0,0,0,0,0,0,0,0,0,0,0,0,0,0,0,0,0,0,0,0,0,0,0,0,0,0,0,0,7,0,0,0,0,61,8,0,0,0,0,0,0,0,0,0,0,0,0,0,0,0,0,0,0,0,0,0,0,0,0,0,0,0,0,0,0,0,151,152,5,0,0,0,42,43,0,0,0,0,0,0,0,0,0,0,0,0,
614,0,0,687,688,18,0,0,0,631,0,0,0,0,1,0,0,0,0,0,0,0,0,0,0,0,0,0,0,0,0,0,0,0,0,18,0,0,0,0,0,0,18,0,581,0,0,0,0,79,0,630,18,460,461,609,0,611,0,670,670,721,722,0,0,0,0,0,0,0,0,0,0,0,0,0,0,0,0,0,0,0,125,126,0,0,0,0,0,0,18,0,0,1,0,0,0,0,0,0,0,0,0,0,0,0,0,0,0,0,0,0,0,0,0,0,0,0,0,0,0,0,0,0,0,0,1,2,0,0,0,0,0,0,76,0,0,77,0,0,0,0,0,0,0,2,0,631,18,0,18,0,0,0,0,0,0,0,0,0,0,0,0,0,0,0,0,0,0,0,0,0,0,0,0,0,0,0,0,0,18,0,0,0,0,0,0,0,0,0,0,0,0,0,0,0,0,0,0,0,0,0,0,0,0,0,1,0,0,0,4,0,0,18,18,24,0,0,3,0,78,25,1,0,0,1,1,0,0,0,0,0,0,0,0,0,0,0,0,0,0,0,0,0,0,0,107,18,1,2,581,166,167,168,169,22,2,18,0,93,94,0,0,1,0,0,0,0,0,0,0,0,0,
0,0,0,0,0,0,0,0,0,0,0,0,0,0,0,0,0,0,0,0,0,0,0,2,0,0,0,0,0,0,0,0,0,0,0,0,0,0,0,0,0,0,0,0,0,0,0,0,0,79,0,0,0,0,0,0,0,0,0,0,0,0,0,0,0,0,0,0,0,0,0,0,0,0,0,0,0,0,0,0,0,0,142,143,18,0,0,0,0,0,0,0,0,0,0,0,0,0,0,0,0,0,0,0,0,0,0,0,0,0,0,0,0,0,0,0,0,0,0,0,0,0,0,0,0,0,0,0,0,0,0,0,18,18,93,0,0,94,0,0,0,0,0,0,0,0,0,0,0,0,0,0,0,0,0,0,0,0,0,0,0,0,0,0,0,0,0,0,0,0,0,0,0,0,0,0,0,0,0,0,0,0,0,0,0,0,0,0,0,0,0,0,0,0,0,0,0,0,0,0,0,0,0,0,0,0,0,0,0,0,0,0,0,0,0,0,0,0,0,0,0,0,0,0,0,0,0,0,0,0,0,0,0,0,0,0,0,0,0,0,0,0,0,0,0,0,0,0,0,0,0,0,0,0,0,0,0,0,0,0,0,0,0,0,0,0,0,0,0,0,0,0,0,
0,0,0,0,0,0,0,0,0,0,0,0,0,0,0,0,0,0,0,0,0,0,0,0,0,0,0,0,0,0,0,0,0,0,0,0,0,0,0,0,0,0,0,0,0,0,0,0,0,79,0,0,0,0,0,0,0,0,0,0,0,0,0,0,0,0,0,0,0,0,0,0,0,0,0,0,0,0,0,0,0,0,0,0,0,0,0,0,0,0,0,0,0,0,0,0,0,0,0,0,0,0,0,0,0,0,0,0,0,0,0,0,0,0,0,0,0,0,0,0,0,0,0,0,0,0,0,0,0,0,734,0,0,0,0,0,0,0,0,0,0,0,0,0,0,0,0,0,0,0,0,0,0,0,0,0,0,0,0,0,0,0,0,0,0,0,0,0,0,0,0,0,0,0,0,0,0,0,0,0,0,0,0,0,0,0,0,0,0,0,0,0,0,0,0,0,0,0,0,0,0,0,0,0,0,0,0,0,0,0,0,0,0,0,0,0,0,0,0,0,0,0,0,0,0,0,0,0,0,0,0,0,107,1,18,40,41,18,0,0,2,1,10,0,0,0,0,0,0,0,0,0,0,0,0,0,0,0,0,0,0,0,0,0,0,0,0,0,0,0,0,0,0,
0,0,0,0,0,0,0,0,0,0,0,0,0,0,0,0,0,0,0,0,0,0,0,0,0,0,0,0,0,0,0,0,0,0,0,0,0,0,0,0,0,0,0,0,0,0,0,0,0,79,0,0,0,0,0,0,0,0,0,0,0,0,0,0,0,0,0,0,0,0,0,0,0,0,0,0,0,0,0,0,0,0,0,0,0,0,0,0,0,0,0,0,0,0,0,0,0,0,0,0,0,0,0,0,0,0,0,0,0,0,0,0,0,0,0,0,0,0,0,0,0,0,0,0,0,0,0,0,0,0,751,0,0,0,0,0,0,0,0,0,0,0,0,0,0,0,0,0,0,0,0,0,0,0,0,0,0,0,0,0,0,0,0,0,0,0,0,0,0,0,0,0,0,0,0,0,0,0,0,0,0,0,0,0,0,0,0,0,0,0,0,0,0,0,0,0,0,0,0,0,0,0,0,0,0,0,0,0,0,0,0,0,0,0,0,0,0,0,0,0,0,0,0,0,0,0,0,0,0,0,0,0,0,0,0,0,0,0,0,0,0,0,0,0,0,0,0,0,0,0,0,0,0,0,0,0,0,0,0,0,0,0,0,0,0,0,0,0,0,0,0,0,0
</data>
 </layer>
 <objectgroup id="5" name="Entities">
  <object id="82" name="PlayerStart" x="76.5" y="173">
   <point/>
  </object>
  <object id="83" name="Goblin" x="245.5" y="180">
   <point/>
  </object>
  <object id="84" name="Skeleton" x="464.5" y="167">
   <point/>
  </object>
  <object id="85" name="Goblin" x="687.5" y="184.5">
   <point/>
  </object>
  <object id="86" name="Goblin" x="863" y="181">
   <point/>
  </object>
  <object id="87" name="Mushroom" x="960.5" y="180.5">
   <point/>
  </object>
  <object id="88" name="Skeleton" x="1100.5" y="130">
   <point/>
  </object>
  <object id="89" name="goblin" x="1214" y="138">
   <point/>
  </object>
  <object id="90" name="Mushroom" x="1377.5" y="194">
   <point/>
  </object>
  <object id="91" name="Skeleton" x="1462" y="178">
   <point/>
  </object>
  <object id="92" name="Goblin" x="1565.5" y="178">
   <point/>
  </object>
  <object id="94" name="Skeleton" x="1792" y="119">
   <point/>
  </object>
  <object id="95" name="Skeleton" x="2400" y="178.5">
   <point/>
  </object>
  <object id="96" name="Mushroom" x="2566.5" y="144.5">
   <point/>
  </object>
  <object id="97" name="Mushroom" x="2672.5" y="148.5">
   <point/>
  </object>
  <object id="98" name="Goblin" x="3073" y="67">
   <point/>
  </object>
  <object id="99" name="FrostBoss" x="3807" y="195">
   <point/>
  </object>
 </objectgroup>
 <objectgroup id="2" name="Collision">
  <object id="2" x="0" y="192" width="159" height="17"/>
  <object id="7" x="800" y="192" width="240.5" height="16.5"/>
  <object id="8" x="1024.5" y="184" width="31.5" height="7.5"/>
  <object id="9" x="1032.5" y="176.5" width="23.5" height="6.5"/>
  <object id="10" x="1041" y="168.5" width="30" height="7"/>
  <object id="11" x="1049" y="159.5" width="23" height="8"/>
  <object id="12" x="1056.5" y="152.5" width="15" height="6"/>
  <object id="13" x="1065" y="145" width="198" height="16"/>
  <object id="14" x="1247.5" y="159.5" width="16" height="79.5"/>
  <object id="15" x="1312.5" y="208.5" width="15.5" height="31"/>
  <object id="16" x="1312" y="207.5" width="112" height="16"/>
  <object id="17" x="1408.5" y="201" width="16" height="6.5"/>
  <object id="18" x="1416.5" y="192" width="280.5" height="16"/>
  <object id="19" x="1680.5" y="183.5" width="31" height="8"/>
  <object id="20" x="1688.5" y="176.5" width="23" height="7"/>
  <object id="21" x="1696.5" y="169" width="31.5" height="7"/>
  <object id="22" x="1704" y="160" width="24" height="8.5"/>
  <object id="23" x="1712" y="152" width="32" height="8.5"/>
  <object id="24" x="1721" y="143.5" width="23.5" height="8.5"/>
  <object id="25" x="1728" y="136" width="25.5" height="7.5"/>
  <object id="26" x="1736.5" y="127.5" width="119" height="16"/>
  <object id="27" x="1839.5" y="142.5" width="16" height="97"/>
  <object id="28" x="1904" y="159.5" width="48" height="15.5"/>
  <object id="29" x="1904" y="176" width="16" height="64"/>
  <object id="30" x="1936" y="175" width="16.5" height="65.5"/>
  <object id="31" x="2000" y="191.5" width="16.5" height="48.5"/>
  <object id="32" x="2017" y="191.5" width="15.5" height="17.5"/>
  <object id="36" x="2032.5" y="191" width="16" height="48.5"/>
  <object id="37" x="2096" y="207.5" width="159.5" height="17"/>
  <object id="38" x="2304.5" y="192" width="16" height="48"/>
  <object id="39" x="2304" y="192" width="160.5" height="16.5"/>
  <object id="40" x="2448.5" y="184" width="32" height="8"/>
  <object id="41" x="2456" y="175.5" width="25" height="7.5"/>
  <object id="42" x="2464.5" y="167.5" width="21.5" height="7.5"/>
  <object id="43" x="2472" y="159.5" width="280.5" height="16.5"/>
  <object id="44" x="2745.5" y="160" width="9.25" height="4.75"/>
  <object id="45" x="2744.75" y="164.75" width="14" height="4"/>
  <object id="46" x="2743.5" y="168.75" width="19" height="4"/>
  <object id="47" x="2741.25" y="172.75" width="25.5" height="3.75"/>
  <object id="48" x="2741.75" y="176.75" width="28.75" height="4"/>
  <object id="49" x="2741.75" y="180.5" width="32.75" height="4.25"/>
  <object id="50" x="2750.75" y="184.5" width="28" height="4.5"/>
  <object id="51" x="2752.75" y="188.75" width="29.75" height="3.5"/>
  <object id="52" x="2756.75" y="193.25" width="30.25" height="3.75"/>
  <object id="53" x="2761.5" y="196.25" width="29" height="4.75"/>
  <object id="55" x="2765.5" y="201" width="29.5" height="4"/>
  <object id="56" x="2773.75" y="204.5" width="25.25" height="4"/>
  <object id="57" x="2784.25" y="208.75" width="63.25" height="16.5"/>
  <object id="58" x="2880.25" y="191.75" width="48" height="11.75"/>
  <object id="60" x="2880.25" y="111.5" width="47.25" height="11.5"/>
  <object id="61" x="2976.25" y="79.5" width="15" height="48.5"/>
  <object id="62" x="2977" y="78.5" width="239.5" height="50.5"/>
  <object id="63" x="3200" y="127" width="14.5" height="113"/>
  <object id="64" x="3264.5" y="190.5" width="400" height="51"/>
  <object id="65" x="3296" y="143" width="48.5" height="12"/>
  <object id="66" x="3392" y="111" width="48" height="14"/>
  <object id="67" x="3650" y="191.333" width="20.3333" height="10.3333"/>
  <object id="68" x="3652" y="200.333" width="26" height="9"/>
  <object id="69" x="3650.67" y="209" width="35.6667" height="8"/>
  <object id="70" x="3655.67" y="217" width="38.6667" height="9"/>
  <object id="71" x="3679.33" y="223.333" width="224" height="16.3333"/>
  <object id="72" x="3888.67" y="216.333" width="31.3333" height="6.33333"/>
  <object id="73" x="3896.67" y="207" width="28.3333" height="8.33333"/>
  <object id="74" x="3904.33" y="200.667" width="26.6667" height="7.66667"/>
  <object id="75" x="3913" y="191.5" width="357.5" height="17.5"/>
  <object id="76" x="4257.5" y="209" width="15" height="31"/>
  <object id="77" x="209" y="191" width="62.5" height="49.5"/>
  <object id="78" x="320" y="208" width="64.5" height="31.5"/>
  <object id="79" x="433" y="176" width="62.5" height="63.5"/>
  <object id="80" x="545" y="191" width="62.5" height="50.5"/>
  <object id="81" x="656.5" y="191" width="63.5" height="49.5"/>
  <object id="101" name="Ceiling" x="400.5" y="47.5" width="95" height="31.5"/>
  <object id="103" name="Ceiling" x="975.5" y="1.5" width="416.5" height="91"/>
  <object id="104" name="Ceiling" x="1392.5" y="93.5">
   <polygon points="0,0 64,-63 65,-92 -1,-92"/>
  </object>
  <object id="105" name="Ceiling" x="1456" y="1" width="639.5" height="28.5"/>
  <object id="106" name="Ceiling" x="2480.5" y="0" width="347" height="93"/>
  <object id="107" name="Ceiling" x="2816" y="93.5">
   <polygon points="0,0 16,17.5 48,17.5 63.5,2 63,-62 79,-77.5 79,-92.5 13,-92.5 12.5,0"/>
  </object>
  <object id="108" name="Ceiling" x="2894.5" y="0.5" width="663.5" height="12.5"/>
  <object id="109" name="Ceiling" x="3558.5" y="0" width="106.5" height="11.5"/>
  <object id="110" name="Ceiling" x="401" y="78.5">
   <polygon points="0,0 0,-31.5 -33.5,-31.5"/>
  </object>
  <object id="111" name="Ceiling" x="496" y="78">
   <polygon points="0,0 -1,-30 30,-31.5"/>
  </object>
  <object id="113" x="2929.5" y="144.5" width="46" height="14.5"/>
  <object id="116" x="1266.5" y="176.5" width="13.5" height="13.5"/>
  <object id="117" x="1298" y="209" width="14" height="30"/>
 </objectgroup>
</map>
