<?xml version="1.0" encoding="UTF-8"?>
<map version="1.10" tiledversion="1.12.2" orientation="orthogonal" renderorder="right-down" width="313" height="15" tilewidth="32" tileheight="32" infinite="0" nextlayerid="6" nextobjectid="105">
 <editorsettings>
  <export target="forest.tmj" format="json"/>
 </editorsettings>
 <tileset firstgid="1" source="ForestTiles.tsx"/>
 <tileset firstgid="163" source="Forest_Props.tsx"/>
 <tileset firstgid="384" source="Other_tiles.tsx"/>
 <tileset firstgid="447" source="Gargen_Props.tsx"/>
 <tileset firstgid="475" source="willow_snow.tsx"/>
 <tileset firstgid="517" source="Pine.tsx"/>
 <tileset firstgid="643" source="willow.tsx"/>
 <layer id="1" name="Ground" width="313" height="15">
  <data encoding="csv">
0,0,0,0,0,0,0,0,0,0,0,0,0,0,0,0,0,0,0,0,0,0,0,0,0,0,0,0,0,0,0,0,0,0,0,0,0,0,0,0,0,0,0,0,0,0,0,0,0,0,0,0,0,0,0,0,0,0,0,0,0,0,0,0,0,0,0,0,0,0,0,0,0,0,0,0,0,0,0,0,0,0,0,0,0,0,0,0,0,0,0,0,0,0,0,0,0,0,0,0,0,0,0,0,0,0,0,0,0,0,0,0,0,0,0,0,0,0,0,0,0,0,0,0,0,0,0,0,0,0,0,0,0,0,0,0,0,0,0,0,0,0,0,0,0,0,0,0,0,0,0,0,0,0,0,0,0,0,0,0,0,0,0,0,0,0,0,0,0,0,0,0,0,0,0,0,0,0,0,0,0,0,0,0,0,0,0,0,0,0,0,0,0,0,0,0,0,0,0,0,0,0,0,0,0,0,0,0,0,0,0,0,0,0,0,0,0,0,0,0,0,0,0,0,0,0,0,0,0,0,0,0,0,0,0,0,0,0,0,0,0,0,0,0,0,0,0,0,0,0,0,0,0,0,0,0,0,0,0,0,0,0,0,0,0,0,0,0,0,0,0,0,0,0,0,0,0,0,0,0,0,0,0,0,0,0,0,0,0,0,0,0,0,0,0,0,0,0,0,0,0,0,0,0,0,0,0,0,0,0,0,0,0,
0,0,0,0,0,0,0,0,0,0,0,0,0,0,0,0,0,0,0,0,0,0,0,0,0,0,0,0,0,0,0,0,0,0,0,0,0,0,0,0,0,0,0,0,0,0,0,0,0,0,0,0,0,0,0,0,0,0,0,0,0,0,0,0,0,0,0,0,0,0,0,0,0,0,0,0,0,0,0,0,0,0,0,0,0,0,0,0,0,0,0,0,0,0,0,0,0,0,0,0,0,0,0,0,0,0,0,0,0,0,0,0,0,0,0,0,0,0,0,0,0,0,0,0,0,0,0,0,0,0,0,0,0,0,0,0,0,0,0,0,0,0,0,0,0,0,0,0,0,0,0,0,0,0,0,0,0,0,0,0,0,0,0,0,0,0,0,0,0,0,0,0,0,0,0,0,0,0,0,0,0,0,0,0,0,0,0,0,0,0,0,0,0,0,0,0,0,0,0,0,0,0,0,0,0,0,0,0,0,0,0,0,0,0,0,0,0,0,0,0,0,0,0,0,0,0,0,0,0,0,0,0,0,0,0,0,0,0,0,0,0,0,0,0,0,0,0,0,0,0,0,0,0,0,0,0,0,0,0,0,0,0,0,0,0,0,0,0,0,0,0,0,0,0,0,0,0,0,0,0,0,0,0,0,0,0,0,0,0,0,0,0,0,0,0,0,0,0,0,0,0,0,0,0,0,0,0,0,0,0,0,0,0,
0,0,0,0,0,0,0,0,0,0,0,0,0,0,0,0,0,0,0,0,0,0,0,0,0,0,0,0,0,0,0,0,0,0,0,0,0,0,0,0,0,0,0,0,0,0,0,0,0,0,0,0,0,0,0,0,0,0,0,0,0,0,0,0,0,0,0,0,0,0,0,0,0,0,0,0,0,0,0,0,0,0,0,0,0,0,0,0,0,0,0,0,0,0,0,0,0,0,0,0,0,0,0,0,0,0,0,0,0,0,0,0,0,0,0,0,0,0,0,0,0,0,0,0,0,0,0,0,0,0,0,0,0,0,0,0,0,0,0,0,0,0,0,0,0,0,0,0,0,0,0,0,0,0,0,0,0,0,0,0,0,0,0,0,0,0,0,0,0,0,0,0,0,0,0,0,0,0,0,0,0,0,0,0,0,0,0,0,0,0,0,0,0,0,0,0,0,0,0,0,0,0,0,0,0,0,0,0,0,0,0,0,0,0,0,0,0,0,0,0,0,0,0,0,0,0,0,0,0,0,0,0,0,0,0,0,0,0,0,0,0,0,0,0,0,0,0,0,0,0,0,0,0,0,0,0,0,0,0,0,0,0,0,0,0,0,0,0,0,0,0,0,0,0,0,0,0,0,0,0,0,0,0,0,0,0,0,0,0,0,0,0,0,0,0,0,0,0,0,0,0,0,0,0,0,0,0,0,0,1,2,3,0,
0,0,0,0,0,0,0,0,0,0,0,0,0,0,0,0,0,0,0,0,0,0,0,0,0,0,0,0,0,0,0,0,0,0,0,0,0,0,0,0,0,0,0,0,0,0,0,0,0,0,0,0,0,0,0,0,0,0,0,0,0,0,0,0,0,0,0,0,0,0,0,0,0,0,0,0,0,0,0,0,0,0,160,161,162,0,0,0,0,0,0,0,0,0,0,0,0,0,0,0,0,0,0,0,0,0,0,0,0,0,0,0,0,0,0,0,0,0,0,0,0,0,0,0,0,0,0,0,0,0,0,0,0,0,0,0,0,0,0,0,0,0,0,0,0,0,0,0,0,0,0,0,0,0,0,0,0,0,0,0,0,0,0,0,0,0,0,0,0,0,0,0,0,0,0,0,0,0,0,0,0,0,0,0,0,0,0,0,0,0,0,0,0,0,0,0,0,0,0,0,0,0,0,0,0,0,0,0,0,0,0,0,0,0,0,0,0,0,0,0,0,0,0,0,0,0,0,0,0,0,0,0,0,0,0,0,0,0,0,0,0,0,0,0,0,0,0,0,0,0,0,0,0,0,0,0,0,0,0,0,0,0,0,0,0,0,0,0,0,0,0,0,0,0,0,0,0,0,0,0,0,0,0,0,0,0,0,0,0,0,0,0,0,0,0,0,0,0,0,0,0,0,0,0,0,0,0,0,0,10,11,12,0,
0,0,0,0,0,0,0,0,0,0,0,0,0,0,0,0,0,0,0,0,0,0,0,0,0,0,0,0,0,0,0,0,0,0,0,0,0,0,0,0,0,0,0,0,0,0,0,0,0,0,0,0,0,0,0,0,0,0,0,0,0,0,0,0,109,110,111,0,0,0,160,161,162,0,0,0,0,0,0,0,0,0,0,0,0,0,0,0,0,0,109,110,110,110,110,110,110,111,0,0,0,0,0,0,0,0,0,0,0,0,0,0,0,0,0,0,0,0,0,0,1,2,2,2,3,0,0,0,0,0,0,0,0,0,0,0,0,0,0,0,0,0,0,0,0,0,0,0,0,0,0,0,0,0,0,0,0,0,0,0,0,0,0,0,0,0,0,0,0,0,0,0,0,0,0,0,0,0,0,0,0,0,0,0,0,0,0,0,0,0,0,0,0,0,0,0,0,0,0,0,0,0,0,0,0,0,0,0,0,0,0,0,0,0,0,0,0,0,0,0,0,0,0,0,0,0,0,0,0,0,0,0,34,0,0,0,0,0,0,0,0,0,0,0,0,0,0,0,0,0,0,0,0,0,0,0,0,0,0,0,0,0,0,0,0,0,0,0,0,0,0,0,0,0,0,0,0,0,0,0,0,0,0,0,0,0,0,0,0,0,0,0,0,0,0,0,0,0,0,0,0,0,0,0,0,0,0,0,0,10,11,12,0,
0,0,0,0,0,0,0,0,0,0,0,0,0,0,0,0,0,0,0,0,0,0,0,0,0,0,0,0,0,0,0,0,0,0,0,0,0,0,0,0,0,0,0,0,0,0,0,0,0,0,0,0,0,0,0,0,0,0,0,0,0,0,0,0,118,119,120,0,0,0,0,0,0,0,0,0,160,161,162,0,0,0,0,0,0,0,0,0,0,0,118,119,119,119,119,119,119,120,0,0,0,0,0,0,0,0,0,0,0,0,0,0,0,0,0,0,0,0,0,0,10,11,11,11,33,2,2,2,3,0,0,0,0,0,0,0,0,0,0,0,0,0,0,0,0,0,0,0,0,0,0,0,34,0,0,0,0,0,0,0,0,0,0,0,0,0,0,0,0,0,0,0,0,0,0,0,0,0,0,0,0,0,0,0,0,0,0,0,0,0,0,0,0,0,0,0,0,0,0,0,0,0,0,0,0,0,0,0,0,0,0,0,0,0,0,0,0,0,0,0,0,0,0,0,0,0,0,0,0,0,0,0,10,3,0,0,0,0,0,0,0,0,0,0,0,0,0,0,0,0,0,0,0,0,0,0,0,0,0,0,0,0,0,0,0,0,0,0,0,0,0,0,0,0,0,0,0,0,0,0,0,0,0,0,0,0,0,0,0,0,0,0,0,0,0,0,0,0,0,0,0,0,0,0,0,0,0,0,0,10,11,12,0,
0,0,0,0,0,0,0,0,0,0,0,0,0,0,0,0,0,0,0,0,0,0,0,0,0,0,0,0,0,0,0,0,0,0,0,0,0,230,216,0,0,0,0,0,0,0,0,0,0,0,0,0,0,0,0,0,0,0,0,0,0,0,0,0,118,119,120,0,0,0,0,0,0,0,0,0,0,0,0,0,0,0,0,0,0,0,0,0,0,109,140,119,119,119,119,119,119,120,0,0,1,3,241,0,0,34,0,0,0,0,0,0,0,0,0,0,0,1,2,2,32,11,11,11,11,11,11,11,12,0,0,0,0,0,0,0,0,0,0,0,0,0,0,0,0,0,0,0,0,0,0,0,10,3,0,0,0,0,0,0,0,0,0,0,0,0,0,0,0,0,0,0,0,0,0,0,0,0,0,0,0,0,0,0,0,0,0,0,0,0,0,0,0,0,0,0,0,0,0,0,0,0,0,0,0,0,0,0,0,0,0,0,0,0,0,0,0,0,0,0,0,0,0,0,0,0,0,0,0,0,0,0,10,33,3,0,0,0,0,0,0,0,0,0,0,0,0,0,0,0,0,0,0,0,0,0,0,0,0,0,0,0,0,0,0,0,0,0,0,0,0,0,0,0,0,0,0,0,0,0,0,0,0,0,0,0,0,0,0,0,0,0,0,0,0,0,0,0,0,0,0,0,0,0,0,0,0,1,2,32,11,12,0,
0,0,0,0,0,0,0,0,0,0,0,0,0,0,0,0,0,0,0,0,0,0,0,0,0,0,0,0,0,0,0,0,0,0,0,0,1,2,2,2,2,2,384,385,0,0,0,0,0,0,0,0,0,0,0,160,161,162,0,0,0,0,109,110,140,119,120,0,0,0,0,0,0,0,0,0,0,0,0,0,0,0,0,0,0,0,0,0,109,140,119,119,119,119,119,119,119,120,0,0,10,33,3,0,0,43,0,0,0,0,0,0,0,0,0,0,0,10,11,11,11,11,11,11,11,11,11,11,12,0,0,0,0,0,0,0,0,0,0,0,0,0,0,0,0,0,0,0,0,0,0,1,32,12,0,0,0,0,0,0,0,0,0,0,0,0,0,0,0,0,0,0,0,0,0,0,0,0,0,0,0,0,0,0,0,0,0,0,0,0,0,0,0,0,0,0,0,0,0,0,0,0,0,0,0,0,0,0,0,0,0,0,0,0,0,0,0,0,0,0,0,0,0,0,0,0,0,0,0,52,54,0,10,11,12,0,0,0,0,0,0,0,0,0,0,0,0,0,0,0,0,0,0,0,0,0,0,0,0,0,0,0,0,0,0,0,0,0,0,0,0,0,0,0,0,0,0,0,0,0,0,0,0,0,0,0,0,0,0,0,0,0,0,0,0,0,0,0,0,0,0,0,0,0,0,0,0,10,11,11,11,33,3,
0,0,0,0,0,0,0,0,0,0,0,0,0,0,0,0,0,0,0,0,0,0,268,269,0,0,0,0,0,0,0,0,0,0,0,0,10,11,11,11,11,11,393,394,0,0,0,0,0,0,0,0,0,0,0,0,0,0,0,0,0,0,118,119,119,119,120,0,0,0,0,0,0,0,0,0,0,0,0,0,0,0,0,109,110,110,110,110,140,119,119,119,119,119,119,119,119,120,0,0,10,11,12,0,0,0,0,0,0,255,256,0,0,197,198,1,2,32,11,11,11,11,11,11,11,11,11,11,12,0,0,52,53,54,0,0,0,0,0,0,0,0,0,0,0,0,0,0,0,0,1,32,11,12,0,0,0,0,0,0,0,0,0,0,0,0,0,0,0,0,0,0,0,55,56,56,56,56,56,56,57,0,0,0,0,0,0,0,0,0,0,0,0,0,0,0,0,0,0,0,0,0,0,0,0,0,0,0,0,0,0,0,0,0,0,0,0,0,0,0,0,0,0,0,0,0,0,0,0,0,0,0,10,11,12,0,0,0,0,0,0,0,0,0,0,0,0,0,0,0,0,0,0,0,0,0,0,0,0,0,0,0,0,0,0,0,0,0,0,0,0,0,0,0,0,0,0,0,0,0,0,0,0,0,0,0,0,0,0,0,0,0,0,0,0,0,0,0,0,0,0,0,0,0,0,0,0,10,11,11,11,11,12,
0,0,0,0,0,0,0,0,0,0,0,0,0,0,0,0,0,0,0,241,0,280,281,282,332,333,0,0,216,216,0,0,334,0,229,0,10,11,11,11,11,11,11,403,404,2,2,2,2,2,2,2,3,0,0,0,0,0,0,0,0,0,118,119,119,119,141,111,0,0,0,0,0,0,0,0,0,0,0,0,0,0,0,118,119,119,119,119,119,119,119,119,119,119,119,119,119,120,0,0,10,11,12,0,0,0,0,1,2,2,2,2,2,2,2,32,11,11,11,11,11,11,11,11,11,11,11,11,12,0,0,0,0,0,0,0,0,0,0,0,52,53,53,53,54,0,0,0,1,2,32,11,11,33,3,0,0,0,0,0,0,0,0,0,0,0,0,0,0,0,0,0,55,86,65,65,65,65,65,65,66,0,0,0,0,0,0,0,0,0,0,0,0,0,0,0,0,0,0,0,0,0,0,0,0,0,0,0,0,0,0,0,0,0,0,0,0,0,0,0,0,0,0,0,52,53,53,54,0,0,0,1,32,11,12,0,0,1,2,2,2,2,2,2,2,2,2,2,2,2,3,0,0,0,0,0,0,0,0,0,0,0,0,0,0,0,0,0,0,0,0,0,0,0,0,0,0,0,0,0,0,0,0,0,0,0,0,0,0,0,0,0,0,0,0,0,0,0,0,0,0,0,0,0,0,0,0,10,11,11,11,11,12,
0,0,176,177,178,0,0,0,0,0,0,0,0,0,0,0,1,2,2,2,2,2,2,2,2,2,2,2,2,2,2,2,2,2,2,2,32,11,11,11,11,11,11,11,11,11,11,11,11,11,11,11,12,0,0,0,0,0,0,0,0,109,140,119,119,119,119,141,110,110,110,110,111,0,0,0,0,0,0,0,0,0,0,118,119,119,119,119,119,119,119,119,119,119,119,119,119,120,0,0,10,11,12,0,0,0,0,19,11,11,11,11,11,11,11,11,11,11,11,11,11,11,11,0,0,0,0,0,0,0,0,0,0,0,0,0,0,0,0,0,0,0,0,0,0,0,0,0,19,35,20,20,20,36,21,0,0,0,0,0,0,0,0,0,0,0,0,0,0,0,0,0,64,65,65,65,65,65,65,65,66,0,0,0,0,0,0,0,0,0,0,0,0,0,0,0,0,0,0,0,0,0,0,0,0,0,0,0,0,0,0,0,0,0,0,0,0,0,0,0,0,0,0,0,0,0,0,0,0,0,0,10,11,11,21,0,0,19,20,20,20,20,11,11,11,11,11,11,11,11,12,0,0,0,0,0,0,0,0,0,0,0,0,0,0,0,0,0,0,0,0,0,0,0,0,0,0,0,0,0,0,0,0,0,0,0,0,0,0,0,0,0,0,0,0,0,0,0,0,0,0,0,0,1,2,2,2,32,11,11,11,11,12,
332,333,189,190,191,334,0,0,241,0,0,0,216,0,0,0,10,11,11,11,11,11,11,11,11,11,11,11,11,11,11,11,11,11,11,11,11,11,11,11,11,11,11,11,11,11,11,11,11,11,11,11,12,0,0,0,0,0,0,0,0,118,119,119,119,119,119,119,119,119,119,119,120,0,0,0,0,0,0,0,0,0,109,140,119,119,119,119,119,119,119,119,119,119,119,119,119,120,0,0,10,11,12,0,0,0,0,0,10,11,11,11,11,11,11,11,11,11,11,11,11,11,11,0,0,0,0,0,0,0,0,0,0,0,0,0,52,54,0,0,0,0,0,0,0,0,0,0,0,44,0,0,0,45,0,0,0,0,0,55,56,56,56,56,56,56,56,56,56,56,56,56,86,65,65,65,65,65,65,65,66,0,0,0,0,0,55,56,56,56,56,56,387,388,0,0,0,0,0,0,0,0,0,0,0,0,55,56,56,56,56,56,57,0,0,0,0,0,0,0,0,0,34,0,0,0,0,0,0,0,0,10,11,12,0,0,0,0,0,0,0,0,47,11,11,11,11,11,11,11,33,3,385,0,0,0,0,0,0,0,0,0,0,0,0,0,0,0,0,0,0,0,0,0,0,0,0,0,0,0,0,0,0,0,0,0,0,0,0,0,0,0,0,0,0,0,0,0,0,0,0,0,1,32,11,11,11,11,11,11,11,11,12,
1,2,2,2,2,2,2,2,2,2,2,2,3,0,0,0,10,11,11,11,11,11,11,11,11,11,11,11,11,11,11,11,11,11,11,11,11,11,11,11,11,11,11,11,11,11,11,11,11,11,11,11,12,0,0,0,0,0,0,0,0,118,119,119,119,119,119,119,119,119,119,119,120,0,0,0,0,0,0,0,0,0,118,119,119,119,119,119,119,119,119,119,119,119,119,119,119,120,0,1,32,11,12,216,0,0,0,0,10,11,11,11,11,11,11,11,11,11,11,11,0,0,0,0,0,0,0,0,0,0,0,0,0,0,0,0,0,0,0,0,0,0,0,0,0,0,0,0,0,0,0,0,0,0,0,0,0,0,0,64,65,65,65,65,65,65,65,65,65,65,65,65,65,65,65,65,65,65,65,65,87,57,0,0,0,0,64,65,65,65,65,65,396,397,398,0,0,0,0,0,0,0,0,0,0,0,64,65,65,65,65,65,65,57,0,0,0,0,0,34,0,0,43,0,0,0,0,0,0,0,1,32,11,12,0,0,0,0,0,0,0,0,0,10,11,11,11,11,11,11,11,393,394,395,0,0,0,0,0,0,0,0,0,0,0,0,0,0,0,0,0,0,0,0,0,0,0,0,0,0,0,0,0,0,0,0,0,0,0,0,0,0,0,0,0,0,0,0,0,0,0,0,10,11,11,11,11,11,11,11,11,11,12,
10,11,11,11,11,11,11,11,11,11,11,11,12,0,0,0,10,11,11,11,11,11,11,11,11,11,11,11,11,11,11,11,11,11,11,11,11,11,11,11,11,11,11,11,11,11,11,11,11,11,11,11,12,0,0,0,109,110,110,110,110,140,119,119,119,119,119,119,119,119,119,119,141,110,110,390,391,0,0,0,109,110,140,119,119,119,119,119,119,119,119,119,119,119,119,119,119,120,0,10,11,11,33,3,0,0,0,0,10,11,11,11,11,11,11,11,11,11,11,11,0,0,0,0,0,0,0,0,0,0,0,0,0,0,0,0,0,0,0,0,0,0,0,0,0,0,0,0,0,0,0,0,0,0,0,0,0,0,55,86,65,65,65,65,65,65,65,65,65,65,65,65,65,65,65,65,65,65,65,65,65,66,0,0,0,55,86,65,65,65,65,65,65,406,407,57,0,0,0,0,0,0,0,0,55,56,86,65,65,65,65,65,65,87,57,0,0,0,0,43,0,0,0,0,0,0,0,0,0,0,10,11,11,12,0,0,0,0,0,0,0,0,0,10,11,11,11,11,11,11,11,11,403,404,2,2,2,2,2,2,2,2,2,2,2,2,2,2,2,2,2,2,2,2,2,2,2,2,2,2,2,2,2,2,2,2,2,2,2,2,2,2,2,2,2,2,2,2,2,2,2,2,32,11,11,11,11,11,11,11,11,11,12,
10,11,11,11,11,11,11,11,11,11,11,11,12,0,0,0,10,11,11,11,11,11,11,11,11,11,11,11,11,11,11,11,11,11,11,11,11,11,11,11,11,11,11,11,11,11,11,11,11,11,11,11,12,0,0,0,118,119,119,119,119,119,119,119,119,119,119,119,119,119,119,119,119,119,119,399,400,401,0,109,140,119,119,119,119,119,119,119,119,119,119,119,119,119,119,119,119,120,0,10,11,11,11,12,0,0,0,0,10,11,11,11,11,11,11,11,11,11,11,11,0,0,0,0,1,2,3,0,0,0,0,0,0,0,0,0,0,0,0,0,0,0,0,0,0,0,0,0,0,55,56,56,56,56,56,55,56,56,86,65,65,65,65,65,65,65,65,65,65,65,65,65,65,65,65,65,65,65,65,65,65,66,0,0,0,64,65,65,65,65,65,65,65,65,65,87,56,56,56,56,56,56,56,56,86,65,65,65,65,65,65,65,65,65,87,56,57,0,0,0,0,0,0,0,0,0,0,0,0,0,10,11,11,12,0,0,0,0,0,0,0,0,0,10,11,11,11,11,11,11,11,11,11,11,11,11,11,11,11,11,11,11,11,11,11,11,11,11,11,11,11,11,11,11,11,11,11,11,11,11,11,11,11,11,11,11,11,11,11,11,11,11,11,11,11,11,11,11,11,11,11,11,11,11,11,11,11,11,11,11,11,11,12
</data>
 </layer>
 <layer id="2" name="Prop" width="313" height="15">
  <data encoding="csv">
0,0,0,0,0,0,0,0,0,0,0,0,0,0,0,0,0,0,0,0,0,0,0,0,0,0,0,0,0,0,0,0,0,0,0,0,0,0,0,0,0,0,0,0,0,0,0,0,0,0,0,0,0,0,0,0,0,0,0,0,0,0,0,0,0,0,0,0,0,0,0,0,0,0,0,0,0,0,0,0,0,0,0,0,0,0,0,0,0,0,0,0,0,0,0,0,0,0,0,0,0,0,0,0,0,0,0,0,0,0,0,0,0,0,0,0,0,0,0,0,0,0,0,0,0,0,0,0,0,0,0,0,0,0,0,0,0,0,0,0,0,0,0,0,0,0,0,0,0,0,0,0,0,0,0,0,0,0,0,0,0,0,0,0,0,0,0,0,0,0,0,0,0,0,0,0,0,0,0,0,0,0,0,0,0,0,0,0,0,0,0,0,0,0,0,0,0,0,0,0,0,0,0,0,0,0,0,0,0,0,0,0,0,0,0,0,0,0,0,0,0,0,0,0,0,0,0,0,0,0,0,0,0,0,0,0,0,0,0,0,0,0,0,0,0,0,0,0,0,0,0,0,0,0,0,0,0,0,0,0,0,0,0,0,0,0,0,0,0,0,0,0,0,0,0,0,0,0,0,0,0,0,0,0,0,0,0,0,0,0,0,0,0,0,0,0,0,0,0,0,0,0,0,0,0,0,0,0,0,0,0,0,0,
0,0,0,0,0,0,0,0,0,0,0,0,0,0,0,0,0,0,0,0,0,0,0,0,0,0,0,0,0,0,0,0,0,0,0,0,0,0,0,0,0,0,0,0,0,0,0,0,0,0,0,0,0,0,0,0,0,0,0,0,0,0,0,0,0,0,0,0,0,0,0,0,0,0,0,0,0,0,0,0,0,0,0,0,0,0,0,0,0,0,0,0,0,0,0,0,0,0,0,0,0,0,0,0,0,0,0,0,0,0,0,0,0,0,0,0,0,0,0,0,0,0,0,0,0,0,0,0,0,0,0,0,0,0,0,0,0,0,0,0,0,0,0,0,0,0,0,0,0,0,0,0,0,0,0,0,0,0,0,0,0,0,0,0,0,0,0,0,0,0,0,0,0,0,0,0,0,0,0,0,0,0,0,0,0,0,0,0,0,0,0,0,0,0,0,0,0,0,0,0,0,0,0,0,0,0,0,0,0,0,0,0,0,0,0,0,0,0,0,0,0,0,0,0,0,0,0,0,0,0,0,0,0,0,0,0,0,0,0,0,0,0,0,0,0,0,0,0,0,0,0,0,0,0,0,0,0,0,0,0,0,0,0,0,0,0,0,0,0,0,0,0,0,0,0,0,0,0,0,0,0,0,0,0,0,0,0,0,0,0,0,0,0,0,0,0,0,0,0,0,0,0,0,0,0,0,0,0,0,0,0,0,0,
0,0,0,0,0,0,0,0,0,0,0,0,0,0,0,0,0,0,0,0,0,0,0,0,0,0,0,0,0,0,0,0,0,0,0,0,0,0,0,0,0,0,0,0,0,0,0,0,0,0,0,0,0,0,0,0,0,0,0,0,0,0,0,0,0,0,0,0,0,0,0,0,0,0,0,0,0,0,0,0,0,0,0,0,0,0,0,0,0,0,0,0,0,0,0,0,0,0,0,0,0,0,0,0,0,0,0,0,0,0,0,0,0,0,0,0,0,0,0,0,0,0,268,269,0,0,0,0,0,0,0,0,0,0,0,0,0,0,0,0,0,0,0,0,0,0,0,0,0,0,0,0,0,0,0,0,0,0,0,0,0,0,0,0,0,0,0,0,0,0,0,0,0,0,0,0,528,0,0,0,0,0,0,0,0,0,0,0,0,0,0,0,0,0,0,0,0,0,0,0,0,0,0,0,0,0,0,0,0,0,0,0,0,0,0,0,0,0,0,0,0,0,0,0,0,0,0,0,0,0,0,0,0,0,0,0,0,0,0,0,0,0,0,0,0,0,0,0,0,0,0,0,0,0,0,0,0,0,0,0,0,0,0,0,0,0,0,0,0,0,0,0,0,0,0,0,0,0,0,0,0,0,0,0,0,0,0,0,0,0,0,0,0,0,0,0,0,0,0,0,0,0,0,0,0,0,0,0,0,0,0,0,0,
0,0,0,0,0,0,0,0,0,0,0,0,0,0,0,0,0,0,0,0,0,0,0,0,0,0,0,0,0,0,0,0,0,0,0,0,0,0,0,0,0,0,0,0,0,0,0,0,0,0,0,0,0,0,0,0,0,0,0,0,0,0,0,0,361,261,262,0,0,0,0,0,0,0,0,0,0,0,0,0,0,0,0,0,0,0,0,0,0,0,247,360,247,202,170,195,196,0,0,0,459,460,0,0,0,0,0,0,0,0,0,0,0,0,0,0,0,0,0,0,0,280,281,282,216,0,0,0,0,0,0,0,0,0,0,0,0,0,0,0,0,0,0,0,0,0,0,0,0,0,0,0,0,0,0,0,0,0,0,0,0,0,0,0,0,0,0,0,0,0,0,0,0,0,0,0,549,0,0,0,0,0,0,0,0,0,0,0,0,0,0,0,0,0,0,0,0,0,0,0,0,0,0,0,0,0,0,0,528,0,0,0,0,0,0,0,0,0,0,0,0,0,0,0,0,0,0,0,0,0,0,0,217,0,0,0,0,0,0,0,0,0,0,0,0,521,0,0,0,0,0,0,0,0,0,0,0,0,0,0,0,0,0,0,0,0,0,0,0,0,0,0,0,0,0,0,0,0,0,0,0,0,0,0,0,0,0,0,0,0,0,0,0,0,0,0,0,0,0,0,0,0,0,0,0,0,0,0,0,0,0,0,0,
0,0,0,0,0,0,0,0,0,0,0,0,0,0,0,0,0,0,0,0,0,0,0,0,0,0,0,0,0,0,0,518,0,0,0,0,0,0,0,0,0,0,0,0,0,0,0,0,0,0,0,0,0,0,0,0,0,0,0,0,0,0,0,0,0,0,0,0,0,0,0,0,0,0,0,0,0,0,0,0,0,0,0,0,0,0,0,0,0,0,0,0,0,0,0,0,0,0,0,0,466,467,0,0,0,0,0,0,0,0,0,0,0,0,0,0,0,0,0,0,0,0,0,0,0,164,167,174,216,0,0,0,0,0,0,0,0,0,0,0,0,0,0,0,0,0,0,0,0,0,0,0,229,0,0,0,0,0,0,0,0,0,0,0,0,0,0,0,0,0,0,0,0,0,0,569,570,571,0,0,0,0,0,0,0,0,0,0,0,0,0,0,0,0,0,0,0,0,0,0,0,0,0,0,0,0,0,0,549,0,0,0,0,0,0,0,0,0,0,0,0,0,0,0,0,0,0,0,0,0,0,0,0,0,0,0,0,0,0,0,0,0,0,0,0,542,0,0,0,0,0,0,0,0,0,0,0,0,0,0,0,0,0,0,0,0,0,0,0,0,0,0,0,0,0,0,0,0,0,0,0,0,0,0,0,0,0,0,0,0,0,0,0,0,0,0,0,0,0,0,0,0,0,0,0,0,0,0,0,0,0,0,0,
0,0,0,0,0,0,0,0,0,0,0,0,0,0,0,0,0,0,0,0,0,0,0,0,0,0,0,0,0,0,0,539,0,0,0,0,0,0,179,180,181,0,0,0,0,0,0,0,0,0,0,0,0,0,0,0,0,0,0,0,0,0,0,0,0,0,0,0,0,0,0,0,0,0,0,0,0,0,0,0,0,0,0,0,0,0,0,0,0,0,0,0,0,0,0,0,0,0,0,0,473,474,0,0,0,0,0,0,0,0,0,0,0,0,0,0,0,216,212,254,0,0,0,0,0,0,0,0,0,0,0,0,0,0,0,0,0,0,0,0,0,0,0,0,0,0,0,0,0,0,0,0,0,0,0,0,0,0,0,0,0,0,0,0,0,0,0,528,0,0,0,0,0,0,0,590,591,592,0,0,0,0,0,0,0,0,0,528,0,0,528,0,0,0,0,0,0,0,0,0,0,0,0,0,0,0,0,569,570,571,0,0,0,0,0,0,0,0,0,0,0,0,0,0,0,0,0,0,0,0,0,0,0,0,241,0,0,0,0,0,0,0,0,0,562,563,564,0,0,0,0,0,0,0,0,0,0,0,0,0,0,0,0,0,0,0,0,0,0,0,0,0,0,0,0,0,0,0,0,0,0,0,0,0,0,0,0,0,0,0,0,0,0,0,0,0,0,0,0,0,0,0,0,0,0,0,0,523,217,0,0,0,0,
0,0,0,0,0,0,0,0,0,0,0,0,0,0,0,0,0,0,0,0,0,0,0,0,0,0,0,0,0,0,559,560,561,0,0,0,0,0,192,193,194,332,333,0,0,0,0,0,0,0,0,0,0,0,0,0,0,0,0,0,0,0,247,360,0,0,0,0,0,0,0,0,0,0,0,0,0,0,0,0,0,0,0,0,0,277,278,0,0,0,0,0,0,0,0,0,0,0,0,0,0,0,0,0,0,0,0,0,0,0,0,459,460,0,0,0,0,0,0,0,0,0,0,0,0,0,0,0,0,0,0,0,0,0,0,0,0,0,0,0,0,0,0,0,0,0,0,0,0,0,0,0,0,0,0,0,0,0,0,0,0,0,0,0,0,0,0,549,0,0,528,0,0,0,0,611,612,613,0,0,0,0,0,0,0,0,0,549,0,0,549,0,0,0,0,0,0,0,0,0,0,0,0,0,0,0,0,590,591,592,0,0,0,0,0,0,0,0,0,0,0,0,0,0,0,0,0,0,0,216,0,0,0,0,0,0,0,0,0,0,0,0,0,0,583,584,585,0,0,0,0,0,0,0,0,0,0,0,0,0,0,0,0,0,0,0,0,0,0,0,0,0,0,0,0,0,0,0,0,0,0,0,0,0,0,0,0,0,0,0,0,0,0,0,0,0,0,0,0,0,0,0,0,0,0,0,0,0,0,0,0,0,0,
561,0,0,0,0,0,0,0,0,0,0,0,0,0,0,0,0,0,459,460,0,0,0,0,0,0,0,0,0,0,580,581,582,0,0,0,0,0,0,0,0,0,0,0,0,0,0,306,307,308,309,310,0,0,0,0,0,0,0,0,0,0,0,0,0,0,0,0,0,0,0,0,0,476,477,478,479,0,0,0,0,0,0,0,289,290,291,247,0,0,0,0,0,0,0,0,0,0,0,0,0,0,0,0,0,0,0,0,0,0,0,466,467,0,0,0,230,0,0,0,0,0,0,0,0,0,0,0,0,0,0,216,208,230,0,0,0,0,0,0,0,0,0,0,0,0,0,0,0,0,0,0,0,0,0,0,0,0,0,0,0,0,0,0,0,0,569,570,571,0,549,0,0,0,348,632,633,634,551,0,0,0,0,0,0,0,569,570,571,569,570,571,0,0,0,0,0,0,0,0,0,0,0,0,0,0,0,611,612,613,0,0,0,0,0,0,0,0,0,0,0,0,0,0,0,0,0,0,0,0,0,0,0,0,0,0,0,0,0,0,0,268,269,0,604,605,606,0,0,0,0,0,0,0,0,0,0,0,0,0,0,0,0,0,0,0,0,0,0,0,0,0,0,0,0,0,0,0,644,645,646,647,0,0,0,0,0,0,0,0,0,0,0,0,0,0,0,0,0,0,0,0,0,0,0,0,0,0,0,0,0,0,0,
582,0,0,0,0,0,0,0,0,0,0,0,0,0,0,0,0,0,466,467,0,0,0,0,0,0,517,0,0,0,601,602,603,0,0,0,0,0,0,0,0,0,0,0,544,195,196,319,0,335,0,323,335,0,0,0,0,0,0,0,0,0,0,0,0,0,0,361,0,0,0,0,482,483,484,485,486,487,0,0,0,0,0,0,0,0,0,0,0,0,0,0,0,0,0,0,0,0,0,0,0,0,0,0,0,0,0,332,333,0,0,473,474,0,0,0,0,0,0,0,0,0,0,0,0,0,0,0,0,0,0,0,0,0,0,0,0,0,0,0,0,216,255,256,217,0,0,0,334,0,0,0,0,0,232,0,0,0,0,0,0,0,0,0,0,0,590,591,592,0,572,0,0,0,0,0,0,0,0,0,0,0,0,0,0,0,590,591,592,590,591,592,0,0,0,0,0,0,0,0,0,0,0,0,0,0,0,632,633,634,0,0,0,0,0,0,0,0,0,0,0,0,0,0,0,216,229,216,0,0,0,216,0,0,0,0,0,255,256,544,280,281,282,0,625,626,627,0,211,544,209,0,0,0,0,0,0,0,0,0,0,0,0,0,0,0,0,0,0,0,0,0,0,0,0,0,0,650,651,652,653,654,655,656,0,0,0,0,0,0,0,0,0,0,0,0,0,0,0,0,0,0,0,0,0,0,0,0,0,0,0,0,0,
603,0,0,0,0,0,0,0,0,459,460,0,0,0,0,0,0,0,473,474,0,0,0,0,0,0,538,0,164,163,622,623,624,0,0,0,0,0,0,0,0,0,0,0,0,0,0,0,0,0,0,0,0,0,0,0,0,0,0,0,0,221,0,0,0,0,0,0,0,247,248,249,489,490,491,492,493,494,495,0,0,0,0,0,0,0,0,0,0,0,0,0,0,0,0,0,0,0,0,0,0,0,0,0,0,0,0,0,0,0,0,0,0,0,0,0,0,0,0,0,0,0,0,0,20,20,20,20,21,0,0,0,0,0,0,0,0,0,0,0,0,0,0,0,0,0,0,0,0,0,0,0,0,0,0,0,0,0,0,0,0,274,275,0,0,0,611,612,613,0,572,0,0,0,0,0,0,0,0,0,0,0,0,0,0,0,611,612,613,611,612,613,0,0,0,0,0,0,0,0,0,0,0,0,0,0,0,0,572,0,0,0,0,0,0,0,0,0,0,0,0,0,0,0,0,0,0,0,0,0,0,0,0,0,0,0,0,0,0,0,0,0,0,0,0,0,0,0,0,0,0,0,0,0,0,0,0,0,0,0,0,0,0,0,0,0,0,0,0,0,0,0,0,0,0,0,0,657,658,659,660,661,662,663,0,0,0,0,0,0,0,0,0,0,0,0,0,0,0,0,0,0,0,0,523,229,0,0,0,0,0,0,0,
624,0,0,0,0,0,0,0,0,466,467,0,0,0,0,0,0,0,0,0,0,0,0,0,0,0,0,0,0,0,0,0,0,0,0,0,0,0,0,0,0,0,0,0,0,0,0,0,0,0,0,0,0,0,0,0,0,0,0,0,0,0,0,0,0,0,0,0,0,0,0,0,496,497,498,499,500,501,502,0,0,0,0,0,0,0,0,0,0,0,0,0,0,0,0,0,0,0,0,0,0,0,0,0,0,0,0,0,0,0,0,0,0,0,0,0,0,0,0,0,0,0,0,21,0,0,0,0,0,0,0,0,0,0,0,0,241,0,0,0,0,0,0,0,0,0,0,0,0,0,0,0,0,0,0,0,0,0,0,219,286,287,288,0,345,346,632,633,634,348,593,0,0,0,0,0,0,0,0,0,0,0,0,0,0,0,632,633,634,632,633,634,219,0,0,0,0,0,0,0,0,0,0,0,0,0,0,233,593,0,244,232,0,0,0,0,0,0,0,0,0,0,216,0,0,0,0,0,0,0,0,0,0,0,0,0,0,0,0,0,0,0,0,0,0,0,0,0,0,0,0,0,0,0,0,0,0,0,0,0,0,0,0,0,0,0,0,0,0,0,0,0,0,0,0,0,0,664,665,666,667,668,669,670,0,0,0,0,0,0,0,0,0,0,0,0,0,0,0,0,0,0,217,0,0,0,0,0,0,0,0,0,0,
0,0,0,0,0,0,203,169,0,473,474,0,0,0,0,0,0,0,0,0,0,0,0,0,0,0,0,0,0,0,0,0,0,0,0,0,0,0,0,0,0,0,0,0,0,0,0,0,0,0,0,0,0,0,0,0,0,0,0,0,0,0,0,0,0,0,0,0,0,0,0,0,503,504,505,506,507,508,509,0,0,0,0,0,0,0,0,0,0,0,0,0,0,0,0,0,0,0,0,335,0,0,0,0,0,0,0,0,0,0,0,0,0,0,0,0,0,0,0,0,0,0,12,0,0,0,0,0,0,0,0,0,0,0,0,0,0,0,0,0,0,0,0,0,0,0,0,0,0,0,0,0,0,0,0,0,0,0,0,0,0,0,0,0,0,0,0,0,0,0,0,0,0,0,0,0,0,0,0,0,0,348,0,0,0,0,0,0,0,0,0,0,0,0,0,0,0,0,0,0,0,0,0,0,0,0,0,0,0,0,0,0,0,219,0,0,0,0,0,241,0,0,0,0,0,0,0,0,0,0,229,0,0,0,0,0,0,0,0,0,0,0,0,0,0,0,0,0,0,0,0,384,0,0,0,0,0,0,0,0,0,517,0,0,268,269,0,0,0,0,0,0,0,0,0,0,0,671,672,673,674,675,676,677,0,0,0,0,0,0,0,0,0,0,0,0,0,0,0,0,0,0,0,0,0,0,0,0,0,0,0,0,0,
0,0,0,0,0,0,0,0,0,0,0,0,0,0,0,519,0,0,0,0,0,0,0,0,0,0,0,0,0,0,0,0,0,0,0,0,0,0,0,0,0,0,0,0,0,0,0,0,0,0,0,0,0,0,0,0,223,0,260,221,361,0,0,0,0,0,0,0,0,0,0,0,0,235,512,513,0,0,516,0,0,223,0,0,0,0,0,0,0,0,0,0,0,0,0,0,0,0,0,0,0,0,0,0,0,0,0,0,0,0,0,0,0,0,0,0,0,0,0,0,20,20,21,0,0,279,0,0,0,0,0,0,0,0,0,0,0,0,0,0,0,0,0,0,0,0,0,0,0,0,0,0,0,0,0,0,250,251,0,0,0,0,0,0,0,0,0,0,0,0,0,0,0,0,0,0,0,0,0,0,0,0,0,0,0,219,0,0,0,0,0,0,0,0,0,0,0,0,0,0,0,0,274,275,0,244,0,0,0,0,0,0,0,0,0,0,0,0,0,0,0,0,0,0,0,0,0,0,0,0,0,0,0,0,0,0,0,0,0,0,0,0,0,0,0,0,0,0,0,0,0,0,0,0,0,212,0,0,0,0,0,538,0,280,281,282,0,0,0,230,0,212,0,229,0,208,0,211,241,680,681,0,212,241,210,0,208,0,241,0,241,208,0,255,256,254,0,216,0,544,216,0,0,0,0,0,0,0,0,0,0,0,0,
0,0,0,0,0,0,0,0,0,0,0,0,0,519,0,540,0,0,0,0,0,0,0,0,0,0,0,0,0,0,0,0,0,0,0,0,0,0,0,0,0,0,0,0,0,0,0,0,0,0,0,0,0,0,0,0,0,0,0,0,0,0,0,0,0,0,0,0,0,0,0,0,0,0,0,0,0,0,0,236,0,0,0,0,0,0,0,0,0,0,0,0,0,0,0,0,0,0,0,0,0,0,0,0,0,0,0,0,0,0,0,0,0,0,0,0,0,0,0,12,0,0,0,0,241,292,229,0,0,0,0,0,0,0,0,0,0,0,0,0,0,0,0,0,0,0,0,0,0,244,0,0,219,0,0,244,263,264,0,0,0,0,0,0,0,0,0,0,0,0,0,0,0,0,0,0,0,0,0,0,0,0,0,0,0,0,0,0,0,0,0,0,0,0,0,0,0,345,346,0,244,286,287,288,0,0,0,0,0,0,0,0,0,0,0,233,219,0,0,0,0,0,0,0,0,0,0,0,0,0,0,0,0,0,0,0,0,0,0,0,0,0,0,0,0,0,0,0,0,0,0,0,0,0,0,0,0,0,0,0,0,0,0,0,0,0,0,0,0,0,0,0,0,0,0,0,0,0,0,0,0,0,0,0,0,0,0,0,0,0,0,0,0,0,0,0,0,0,0,0,0,0,0,0,0,0,0,0,0,0,0,0,0,
0,0,0,0,0,0,0,0,0,0,0,0,0,540,519,540,0,0,0,0,0,0,0,0,0,0,0,0,0,0,0,0,0,0,0,0,0,0,0,0,0,0,0,0,0,0,0,0,0,0,0,0,0,0,0,0,0,0,0,0,0,0,0,0,0,0,0,0,0,0,0,0,0,0,0,0,0,0,0,0,0,0,0,0,0,0,0,0,0,0,0,0,0,0,0,0,0,0,0,0,0,0,0,0,0,0,0,0,0,0,0,0,0,0,0,0,0,0,0,12,0,0,0,0,0,0,0,0,0,0,0,0,0,0,0,0,0,0,0,0,0,0,0,0,0,0,0,0,0,0,0,0,0,0,0,0,0,0,0,0,0,0,0,0,0,0,0,0,0,0,0,0,0,0,0,0,0,0,0,0,0,0,0,0,0,0,0,0,0,0,0,0,0,0,0,0,0,0,0,0,0,0,0,0,0,0,0,0,0,0,0,0,0,0,0,0,0,0,0,0,0,0,0,0,0,0,0,0,0,0,0,0,0,0,0,0,0,0,0,0,0,0,0,0,0,0,0,0,0,0,0,0,0,0,0,0,0,0,0,0,0,0,0,0,0,0,0,0,0,0,0,0,0,0,0,0,0,0,0,0,0,0,0,0,0,0,0,0,0,0,0,0,0,0,0,0,0,0,0,0,0,0,0,0,0,0,0,0,0,0,0,0,0
</data>
 </layer>
 <objectgroup id="3" name="Collision">
  <object id="1" x="-1" y="386" width="414" height="94"/>
  <object id="2" x="515" y="319" width="641" height="162"/>
  <object id="3" x="1156" y="222" width="215" height="259"/>
  <object id="4" x="1369" y="291" width="326" height="187"/>
  <object id="5" x="1794" y="417" width="638" height="64"/>
  <object id="6" x="1954" y="320" width="378" height="97"/>
  <object id="7" x="1989" y="224" width="153" height="96"/>
  <object id="8" x="2139" y="287" width="34" height="34"/>
  <object id="9" x="2053" y="130" width="86" height="92"/>
  <object id="10" x="2532" y="451" width="603" height="28"/>
  <object id="11" x="2566" y="417" width="253" height="31"/>
  <object id="12" x="2625" y="351" width="220" height="65"/>
  <object id="13" x="2660" y="258" width="188" height="92"/>
  <object id="14" x="2820" y="224" width="126" height="32"/>
  <object id="15" x="2851" y="190" width="186" height="34"/>
  <object id="16" x="2885" y="129" width="245" height="65"/>
  <object id="17" x="3074" y="193" width="59" height="256"/>
  <object id="18" x="3202" y="189" width="63" height="292"/>
  <object id="19" x="3169" y="386" width="34" height="95"/>
  <object id="20" x="3261" y="222" width="34" height="259"/>
  <object id="21" x="3294" y="413" width="31" height="68"/>
  <object id="22" x="3426" y="286" width="30" height="64"/>
  <object id="23" x="3454" y="288" width="383" height="194"/>
  <object id="24" x="3684" y="257" width="158" height="32"/>
  <object id="25" x="3749" y="190" width="94" height="64"/>
  <object id="26" x="3840" y="127" width="158" height="191"/>
  <object id="27" x="3838" y="315" width="128" height="33"/>
  <object id="28" x="3837" y="348" width="95" height="63"/>
  <object id="29" x="3997" y="158" width="129" height="160"/>
  <object id="30" x="3971" y="445" width="89" height="35"/>
  <object id="31" x="4196" y="255" width="90" height="30"/>
  <object id="32" x="4357" y="353" width="58" height="27"/>
  <object id="33" x="4484" y="289" width="153" height="29"/>
  <object id="34" x="4737" y="288" width="223" height="61"/>
  <object id="35" x="4804" y="254" width="122" height="35"/>
  <object id="36" x="4838" y="222" width="84" height="32"/>
  <object id="37" x="4868" y="162" width="26" height="57"/>
  <object id="38" x="4894" y="193" width="29" height="28"/>
  <object id="39" x="4773" y="448" width="120" height="31"/>
  <object id="40" x="4964" y="444" width="97" height="36"/>
  <object id="41" x="5060" y="413" width="31" height="66"/>
  <object id="42" x="5090" y="352" width="703" height="129"/>
  <object id="43" x="5784" y="382" width="37" height="99"/>
  <object id="44" x="5507" y="287" width="280" height="65"/>
  <object id="46" x="5540" y="256" width="248" height="32"/>
  <object id="47" x="5924" y="413" width="32" height="64"/>
  <object id="48" x="5952" y="350" width="224" height="131"/>
  <object id="49" x="6173" y="414" width="95" height="67"/>
  <object id="50" x="6259" y="447" width="271" height="33"/>
  <object id="51" x="6530" y="418" width="344" height="61"/>
  <object id="52" x="6869" y="451" width="72" height="31"/>
  <object id="53" x="6594" y="352" width="220" height="65"/>
  <object id="54" x="6808" y="382" width="35" height="36"/>
  <object id="55" x="7011" y="382" width="27" height="63"/>
  <object id="56" x="7108" y="352" width="25" height="61"/>
  <object id="57" x="7172" y="288" width="124" height="30"/>
  <object id="58" x="7332" y="224" width="57" height="30"/>
  <object id="59" x="7396" y="286" width="90" height="193"/>
  <object id="60" x="7362" y="384" width="36" height="94"/>
  <object id="61" x="7427" y="125" width="28" height="159"/>
  <object id="62" x="7453" y="157" width="33" height="130"/>
  <object id="63" x="7479" y="192" width="35" height="157"/>
  <object id="64" x="7588" y="289" width="441" height="59"/>
  <object id="66" x="7747" y="350" width="314" height="32"/>
  <object id="67" x="7780" y="381" width="285" height="100"/>
  <object id="68" x="8064" y="414" width="1304" height="65"/>
  <object id="69" x="9369" y="415" width="648" height="65"/>
  <object id="70" x="9668" y="354" width="348" height="57"/>
  <object id="71" x="9702" y="317" width="320" height="36"/>
  <object id="72" x="9827" y="188" width="155" height="129"/>
  <object id="73" x="9976" y="229" width="36" height="85"/>
  <object id="74" x="9892" y="67" width="90" height="124"/>
  <object id="91" x="4891" y="450" width="74" height="29"/>
  <object id="93" x="2244" y="129" width="87" height="29"/>
  <object id="94" x="2437" y="162" width="86" height="27"/>
  <object id="95" x="2628" y="94" width="88" height="30"/>
  <object id="96" x="1763" y="226" width="91" height="27"/>
  <object id="97" x="3365" y="193" width="24" height="61"/>
 </objectgroup>
 <objectgroup id="5" name="Biomes">
  <object id="98" name="snow" x="1758.67" y="1.33333" width="1377.33" height="480"/>
  <object id="99" x="2618.67" y="704"/>
  <object id="100" name="forest" x="-2" y="-4" width="1762" height="484"/>
  <object id="102" name="forest" x="3134" y="2" width="1640" height="480"/>
  <object id="103" name="autumn" x="4772" y="4" width="2224" height="470"/>
  <object id="104" name="forest" x="6993.94" y="3.0303" width="3027.27" height="478.788"/>
 </objectgroup>
 <objectgroup id="4" name="Entities">
  <object id="75" name="PlayerStart" x="162" y="351">
   <point/>
  </object>
  <object id="76" name="ForestLv1" x="669" y="294">
   <point/>
  </object>
  <object id="77" name="ForestLv1" x="955" y="295">
   <point/>
  </object>
  <object id="78" name="ForestLv1" x="1503" y="260">
   <point/>
  </object>
  <object id="79" name="ForestLv2" x="2241" y="297">
   <point/>
  </object>
  <object id="80" name="ForestLv2" x="2747" y="229">
   <point/>
  </object>
  <object id="81" name="ForestLv2" x="1877" y="403">
   <point/>
  </object>
  <object id="82" name="ForestLv2" x="3070" y="106">
   <point/>
  </object>
  <object id="83" name="&#10;ForestLv3" x="3487" y="259">
   <point/>
  </object>
  <object id="84" name="&#10;ForestLv3" x="3785" y="163">
   <point/>
  </object>
  <object id="85" name="&#10;ForestLv3" x="4058" y="128">
   <point/>
  </object>
  <object id="86" name="&#10;ForestLv3" x="4556" y="260">
   <point/>
  </object>
  <object id="87" name="&#10;ForestLv3" x="5651" y="219">
   <point/>
  </object>
  <object id="88" name="&#10;ForestLv3" x="6341" y="416">
   <point/>
  </object>
  <object id="89" name="Minotaur" x="8976" y="361">
   <point/>
  </object>
  <object id="90" name="DungeonPortal" x="4834" y="427">
   <point/>
  </object>
 </objectgroup>
</map>
